!!!!SEGMENT: pl-stab--12a--003_raszek-waclaw--missa-solemnis-ex-g-domine-deus.krn
!!!cenid: 18xx:3523
!!!COM: Raszek, Wacław
!!!COM-rismid: pe30020314
!!!CDT: <1848->1848
!!!CNT:
!!!OPR: Missa Solemnis ex G
!!!OTL: Domine Deus
!!!OMV: 003
!!!PDT: 1815
!!!AGN:
!!!SMS-siglum: PL-STAb
!!!SMS-shelfmark: 12a
!!!SMS-shelfwork: M
!!!SMS-variant:
!!!SMS-altvar:
!!!NIFC-rismid: 301050679
!!!URL-scan: https://repozytorium.nifc.pl/islandora/object/pl-stab%3A3A24642464/datastream/PDF/view
!!!ONB-nifc: UWAGA: części Mszy: 1. Kyrie, 2. Gloria, 3. Domine Deus, 4. Cum sancto spiritu, 5. In gloria Dei Patris amen, 6. Credo, 7. Et incarnatus, 8. Et resurrexit, 9. Sanctus, 10. Pleni sunt, 11. Benedictus, 12. Agnus Dei, 13. Dona nobis
!!!key: C
**kern	**fba	**dynam	**kern	**dynam	**kern	**dynam	**kern	**dynam	**kern	**text	**dynam	**kern	**text	**dynam	**kern	**text	**dynam	**kern	**text	**kern	**dynam	**kern	**dynam	**kern	**dynam	**kern	**dynam
*	*	*	*group4	*	*group4	*	*group4	*	*group3	*	*	*group3	*	*	*group3	*	*	*group3	*	*group2	*	*group2	*	*group1	*	*group1	*
*part12	*	*part12	*part11	*part11	*part10	*part10	*part9	*part9	*part8	*part8	*part8	*part7	*part7	*part7	*part6	*part6	*part6	*part5	*part5	*part4	*part4	*part3	*part3	*part2	*part2	*part1	*part1
*staff12	*	*	*staff11	*	*staff10	*	*staff9	*	*staff8	*staff8	*	*staff7	*staff7	*	*staff6	*staff6	*	*staff5	*staff5	*staff4	*	*staff3	*	*staff2	*	*staff1	*
*I"Organo	*	*	*I"Alto Viola	*	*I"Violino Secundo	*	*I"Violino Primo	*	*I"Baſso	*	*	*I"Tenore	*	*	*I"Alto	*	*	*I"Canto	*	*I"Cornu 2do	*	*I"Cornu 1mo	*	*I"Flauto IIdo	*	*I"Flauto 1mo	*
*I'org	*	*	*I'vla	*	*I'vl 2	*	*I'vl 1	*	*I'B	*	*	*I'T	*	*	*I'A	*	*	*I'S	*	*I'cor 2	*	*I'cor 1	*	*I'fl 2	*	*I'fl 1	*
*Iorgan	*	*	*Iviola	*	*Ivioln	*	*Ivioln	*	*Ibass	*	*	*Itenor	*	*	*Ialto	*	*	*Isoprn	*	*Icor	*	*Icor	*	*Iflt	*	*Iflt	*
*ICklav	*	*	*ICstr	*	*ICstr	*	*ICstr	*	*ICvox	*	*	*ICvox	*	*	*ICvox	*	*	*ICvox	*	*ICbras	*	*ICbras	*	*ICww	*	*ICww	*
*IGcont	*	*	*IGacmp	*	*IGacmp	*	*IGacmp	*	*IGcoro	*	*	*IGcoro	*	*	*IGcoro	*	*	*IGcoro	*	*IGacmp	*	*IGacmp	*	*IGacmp	*	*IGacmp	*
*clefF4	*	*	*clefC3	*	*clefG2	*	*clefG2	*	*clefF4	*	*	*clefC4	*	*	*clefC3	*	*	*clefC1	*	*clefG2	*	*clefG2	*	*clefG2	*	*clefG2	*
*k[]	*	*	*k[]	*	*k[]	*	*k[]	*	*k[]	*	*	*k[]	*	*	*k[]	*	*	*k[]	*	*k[]	*	*k[]	*	*k[]	*	*k[]	*
*C:	*	*	*C:	*	*C:	*	*C:	*	*C:	*	*	*C:	*	*	*C:	*	*	*C:	*	*C:	*	*C:	*	*C:	*	*C:	*
*M2/4	*	*	*M2/4	*	*M2/4	*	*M2/4	*	*M2/4	*	*	*M2/4	*	*	*M2/4	*	*	*M2/4	*	*M2/4	*	*M2/4	*	*M2/4	*	*M2/4	*
!	!	!	!	!	!	!	!	!	!	!	!	!	!	!	!	!	!	!	!	!	!	!LO:TX:a:i:rj:t=Andante	!	!	!	!	!
!LO:TX:a:i:rj:t=Andante	!	!	!	!	!LO:TX:a:i:rj:t=Andante mode	!	!LO:TX:a:i:rj:t=Andante mod&colon;	!	!LO:TX:a:i:rj:t=Andante	!	!	!LO:TX:a:i:rj:t=Andante	!	!	!LO:TX:a:Bi:t=Andante	!	!	!LO:TX:a:Bi:t=Andante	!	!LO:TX:a:i:t=Andante in C.	!	!LO:TX:a:i:rj:t=in C	!	!LO:TX:a:i:rj:t=Adagio	!	!LO:TX:a:i:rj:t=Andante	!
8r	.	.	8r	.	8r	.	16cc\LL	.	8ryy	.	.	8ryy	.	.	8ryy	.	.	8ryy	.	8ryy	.	8ryy	.	8ryy	.	8ryy	.
.	.	.	.	.	.	.	16cc\JJ	.	.	.	.	.	.	.	.	.	.	.	.	.	.	.	.	.	.	.	.
=1	=1	=1	=1	=1	=1	=1	=1	=1	=1	=1	=1	=1	=1	=1	=1	=1	=1	=1	=1	=1	=1	=1	=1	=1	=1	=1	=1
!LO:TX:a:i:rj:t=Solo	!	!	!	!	!	!	!	!	!	!	!	!	!	!	!	!	!	!	!	!	!	!	!	!	!	!	!
8r	.	.	8r	.	8r	.	8.cc\L	.	0r	.	.	0r	.	.	0r	.	.	0r	.	0r	.	0r	.	0r	.	0r	.
8c\L	.	.	8c/L	.	8e/L	.	.	.	.	.	.	.	.	.	.	.	.	.	.	.	.	.	.	.	.	.	.
.	.	.	.	.	.	.	32dd\LL	.	.	.	.	.	.	.	.	.	.	.	.	.	.	.	.	.	.	.	.
.	.	.	.	.	.	.	32ee\JJJ	.	.	.	.	.	.	.	.	.	.	.	.	.	.	.	.	.	.	.	.
8A\	6	.	8A/	.	8f/	.	16ee\LL	.	.	.	.	.	.	.	.	.	.	.	.	.	.	.	.	.	.	.	.
.	.	.	.	.	.	.	16dd\	.	.	.	.	.	.	.	.	.	.	.	.	.	.	.	.	.	.	.	.
8F\J	6	.	8F/J	.	8a/J	.	16ff\	.	.	.	.	.	.	.	.	.	.	.	.	.	.	.	.	.	.	.	.
.	.	.	.	.	.	.	16dd\JJ	.	.	.	.	.	.	.	.	.	.	.	.	.	.	.	.	.	.	.	.
=2	=2	=2	=2	=2	=2	=2	=2	=2	=2	=2	=2	=2	=2	=2	=2	=2	=2	=2	=2	=2	=2	=2	=2	=2	=2	=2	=2
8G\L	.	.	8G/L	.	8d/L	.	16cc\LL	.	.	.	.	.	.	.	.	.	.	.	.	.	.	.	.	.	.	.	.
.	.	.	.	.	.	.	16b\	.	.	.	.	.	.	.	.	.	.	.	.	.	.	.	.	.	.	.	.
8B\	6 #	.	8d/J	.	8f/J	.	16aa\	.	.	.	.	.	.	.	.	.	.	.	.	.	.	.	.	.	.	.	.
.	.	.	.	.	.	.	16gg\JJ	.	.	.	.	.	.	.	.	.	.	.	.	.	.	.	.	.	.	.	.
8c\J	.	.	16c\LL	.	16e/LL	.	8gg\	.	.	.	.	.	.	.	.	.	.	.	.	.	.	.	.	.	.	.	.
.	.	.	16c\	.	16e/	.	.	.	.	.	.	.	.	.	.	.	.	.	.	.	.	.	.	.	.	.	.
8r	.	.	16e\	.	16g/	.	16r	.	.	.	.	.	.	.	.	.	.	.	.	.	.	.	.	.	.	.	.
.	.	.	16c\JJ	.	16e/JJ	.	16ccc\	.	.	.	.	.	.	.	.	.	.	.	.	.	.	.	.	.	.	.	.
=3	=3	=3	=3	=3	=3	=3	=3	=3	=3	=3	=3	=3	=3	=3	=3	=3	=3	=3	=3	=3	=3	=3	=3	=3	=3	=3	=3
8r	.	.	8r	.	8r	.	16gg\LL	.	.	.	.	.	.	.	.	.	.	.	.	.	.	.	.	.	.	.	.
.	.	.	.	.	.	.	16ee\	.	.	.	.	.	.	.	.	.	.	.	.	.	.	.	.	.	.	.	.
!	!	!	!LO:TX:a:t=P:problem:mixed beam	!	!	!	!	!	!	!	!	!	!	!	!	!	!	!	!	!	!	!	!	!	!	!	!
8F\L	6	.	8d\L	.	8a/L	.	16ff\	.	.	.	.	.	.	.	.	.	.	.	.	.	.	.	.	.	.	.	.
.	.	.	.	.	.	.	16dd\JJ	.	.	.	.	.	.	.	.	.	.	.	.	.	.	.	.	.	.	.	.
8G\	3	.	8G/	.	8d/	.	16cc\LL	.	.	.	.	.	.	.	.	.	.	.	.	.	.	.	.	.	.	.	.
.	.	.	.	.	.	.	16b\	.	.	.	.	.	.	.	.	.	.	.	.	.	.	.	.	.	.	.	.
8B\J	8 3	.	8G/J	.	8d/J	.	16dd\	.	.	.	.	.	.	.	.	.	.	.	.	.	.	.	.	.	.	.	.
.	.	.	.	.	.	.	16ff\JJ	.	.	.	.	.	.	.	.	.	.	.	.	.	.	.	.	.	.	.	.
=4	=4	=4	=4	=4	=4	=4	=4	=4	=4	=4	=4	=4	=4	=4	=4	=4	=4	=4	=4	=4	=4	=4	=4	=4	=4	=4	=4
!LO:TX:a:t=P:problem:mixed beam	!	!	!	!	!	!	!	!	!	!	!	!	!	!	!	!	!	!	!	!	!	!	!	!	!	!	!
8c\L	9	.	8G/L	.	8d/L	.	8ffT\L	.	.	.	.	.	.	.	.	.	.	.	.	.	.	.	.	.	.	.	.
8C/	8_	.	8c/	.	8c/J	.	8ee\J	.	.	.	.	.	.	.	.	.	.	.	.	.	.	.	.	.	.	.	.
8C/J	.	.	8C/J	.	4r	.	8r	.	.	.	.	.	.	.	.	.	.	.	.	.	.	.	.	.	.	.	.
!	!	!	!	!	!	!	!	!LO:DY:a	!	!	!	!	!	!	!	!	!	!	!	!	!	!	!	!	!	!	!
8r	X	.	8r	.	.	.	16g/LL	p	.	.	.	.	.	.	.	.	.	.	.	.	.	.	.	.	.	.	.
.	.	.	.	.	.	.	16g/JJ	.	.	.	.	.	.	.	.	.	.	.	.	.	.	.	.	.	.	.	.
=5	=5	=5	=5	=5	=5	=5	=5	=5	=5	=5	=5	=5	=5	=5	=5	=5	=5	=5	=5	=5	=5	=5	=5	=5	=5	=5	=5
*	*	*	*	*	*	*	*	*	*	*	*	*	*	*	*	*	*	*	*	*	*	*2\right	*	*	*	*2\right	*
!	!	!LO:DY:a	!	!LO:DY:a:t=p.	!	!LO:DY:a:rj:t=p.	!LO:TX:a:t=P:problem:mixed beam	!	!	!	!	!	!	!	!	!	!	!	!	!	!LO:DY:a	!	!LO:DY:a:rj:t=p.	!	!	!	!
8C/	.	p	16c\LL	p	16G/LL	p	8.g/L	.	0r	.	.	0r	.	.	0r	.	.	0r	.	2g/	p	2gg\	p	4ee\	.	2gg\	.
.	.	.	16G\	.	16e/	.	.	.	.	.	.	.	.	.	.	.	.	.	.	.	.	.	.	.	.	.	.
8r	.	.	16c\	.	16G/	.	.	.	.	.	.	.	.	.	.	.	.	.	.	.	.	.	.	.	.	.	.
.	.	.	16G\JJ	.	16e/JJ	.	16ee\Jk	.	.	.	.	.	.	.	.	.	.	.	.	.	.	.	.	.	.	.	.
8GG/	.	.	16d\LL	.	16G/LL	.	16ff\LL	.	.	.	.	.	.	.	.	.	.	.	.	.	.	.	.	16ff\LL	.	.	.
.	.	.	16G\	.	16f/	.	16dd\	.	.	.	.	.	.	.	.	.	.	.	.	.	.	.	.	16dd\	.	.	.
8r	.	.	16d\	.	16G/	.	16cc\	.	.	.	.	.	.	.	.	.	.	.	.	.	.	.	.	16cc\	.	.	.
.	.	.	16G\JJ	.	16f/JJ	.	16b\JJ	.	.	.	.	.	.	.	.	.	.	.	.	.	.	.	.	16b\JJ	.	.	.
=6	=6	=6	=6	=6	=6	=6	=6	=6	=6	=6	=6	=6	=6	=6	=6	=6	=6	=6	=6	=6	=6	=6	=6	=6	=6	=6	=6
!	!	!	!	!	!	!	!LO:TX:t=P:problem:takt zapisany repetycją	!	!	!	!	!	!	!	!	!	!	!	!	!	!	!	!	!	!	!	!
!	!	!	!	!	!	!	!LO:TX:a:t=P:problem:mixed beam	!	!	!	!	!	!	!	!	!	!	!	!	!	!	!	!	!	!	!	!
8C/	.	.	16c\LL	.	16G/LL	.	8.g/Lyy	.	.	.	.	.	.	.	.	.	.	.	.	2g/	.	2gg\	.	8cc\L	.	2gg\	.
.	.	.	16G\	.	16e/	.	.	.	.	.	.	.	.	.	.	.	.	.	.	.	.	.	.	.	.	.	.
8r	.	.	16c\	.	16G/	.	.	.	.	.	.	.	.	.	.	.	.	.	.	.	.	.	.	8ee\J	.	.	.
.	.	.	16G\JJ	.	16e/JJ	.	16ee\Jkyy	.	.	.	.	.	.	.	.	.	.	.	.	.	.	.	.	.	.	.	.
8G\	7	.	16d\LL	.	16G/LL	.	16ff\LLyy	.	.	.	.	.	.	.	.	.	.	.	.	.	.	.	.	16ff\LL	.	.	.
.	.	.	16G\	.	16f/	.	16dd\yy	.	.	.	.	.	.	.	.	.	.	.	.	.	.	.	.	16dd\	.	.	.
8r	.	.	16d\	.	16G/	.	16cc\yy	.	.	.	.	.	.	.	.	.	.	.	.	.	.	.	.	16cc\	.	.	.
.	.	.	16G\JJ	.	16f/JJ	.	16b\JJyy	.	.	.	.	.	.	.	.	.	.	.	.	.	.	.	.	16b\JJ	.	.	.
!LO:PB:g=original	!	!	!	!	!	!	!	!	!	!	!	!	!	!	!	!	!	!	!	!	!	!	!	!	!	!	!
=7	=7	=7	=7	=7	=7	=7	=7	=7	=7	=7	=7	=7	=7	=7	=7	=7	=7	=7	=7	=7	=7	=7	=7	=7	=7	=7	=7
!	!	!LO:DY:t=for	!	!LO:DY:a:t=for	!LO:TX:a:t=P:problem:mixed beam	!LO:DY:a:t=for	!	!LO:DY:a:rj:t=f.	!	!	!	!	!	!	!	!	!	!	!	!	!	!	!	!	!	!	!
8C\L	.	f	8c\L	f	8e/L	f	16cc\LL|	f	.	.	.	.	.	.	.	.	.	.	.	4g/	.	4gg\	.	4cc\	.	4gg\	.
.	.	.	.	.	.	.	16gg\|	.	.	.	.	.	.	.	.	.	.	.	.	.	.	.	.	.	.	.	.
8C\	.	.	8c\	.	8e/	.	(16aa\	.	.	.	.	.	.	.	.	.	.	.	.	.	.	.	.	.	.	.	.
.	.	.	.	.	.	.	16gg\JJ)	.	.	.	.	.	.	.	.	.	.	.	.	.	.	.	.	.	.	.	.
8E\	6	.	8e\	.	8cc\	.	(16gg\LL	.	.	.	.	.	.	.	.	.	.	.	.	8r	.	8r	.	8r	.	8r	.
.	.	.	.	.	.	.	16ccc\)	.	.	.	.	.	.	.	.	.	.	.	.	.	.	.	.	.	.	.	.
8E\J	.	.	8e\J	.	8cc\J	.	16gg\|	.	.	.	.	.	.	.	.	.	.	.	.	8cc\	.	8cc\	.	8cc\	.	8gg\	.
.	.	.	.	.	.	.	16gg\JJ|	.	.	.	.	.	.	.	.	.	.	.	.	.	.	.	.	.	.	.	.
!	!	!	!	!	!	!	!LO:PB:g=original	!	!	!	!	!	!	!	!	!	!	!	!	!	!	!	!	!	!	!	!
=8	=8	=8	=8	=8	=8	=8	=8	=8	=8	=8	=8	=8	=8	=8	=8	=8	=8	=8	=8	=8	=8	=8	=8	=8	=8	=8	=8
.	.	.	.	.	.	.	8qqgg#X/	.	.	.	.	.	.	.	.	.	.	.	.	.	.	.	.	.	.	.	.
4F\	.	.	4f\	.	4cc\	.	4aa\	.	.	.	.	.	.	.	.	.	.	.	.	4cc\	.	8r	.	4cc\	.	4aa\	.
.	.	.	.	.	.	.	.	.	.	.	.	.	.	.	.	.	.	.	.	.	.	4cc\	.	.	.	.	.
4r	.	.	4r	.	4r	.	(16ggn\LL	.	.	.	.	.	.	.	.	.	.	.	.	4r	.	.	.	4r	.	4r	.
.	.	.	.	.	.	.	16ff\)	.	.	.	.	.	.	.	.	.	.	.	.	.	.	.	.	.	.	.	.
.	.	.	.	.	.	.	(16ee\	.	.	.	.	.	.	.	.	.	.	.	.	.	.	8r	.	.	.	.	.
.	.	.	.	.	.	.	16dd\JJ)	.	.	.	.	.	.	.	.	.	.	.	.	.	.	.	.	.	.	.	.
=9	=9	=9	=9	=9	=9	=9	=9	=9	=9	=9	=9	=9	=9	=9	=9	=9	=9	=9	=9	=9	=9	=9	=9	=9	=9	=9	=9
8r	.	.	8r	.	8r	.	(16cc#X\LL	.	0r	.	.	0r	.	.	0r	.	.	0r	.	8r	.	8r	.	8r	.	8r	.
.	.	.	.	.	.	.	16dd\)	.	.	.	.	.	.	.	.	.	.	.	.	.	.	.	.	.	.	.	.
8F\L	6	.	8f\L	.	8a/L	.	16dd'\	.	.	.	.	.	.	.	.	.	.	.	.	8dd\L	.	8dd\L	.	8dd\	.	8ddd\	.
.	.	.	.	.	.	.	16dd'\JJ	.	.	.	.	.	.	.	.	.	.	.	.	.	.	.	.	.	.	.	.
8F#X\	6 3	.	8f#X\	.	8a 8d/	.	(16dd\LL	.	.	.	.	.	.	.	.	.	.	.	.	8dd\	.	8dd\	.	4dd\	.	16ddd\LL	.
.	.	.	.	.	.	.	16ccn\)	.	.	.	.	.	.	.	.	.	.	.	.	.	.	.	.	.	.	16ccc\	.
8F#\J	.	.	8f#\J	.	8aJ 8d/	.	16cc'\	.	.	.	.	.	.	.	.	.	.	.	.	8dd\J	.	8dd\J	.	.	.	16ccc\	.
.	.	.	.	.	.	.	16cc'\JJ	.	.	.	.	.	.	.	.	.	.	.	.	.	.	.	.	.	.	16ccc\JJ	.
!	!	!	!LO:LB:g=original	!	!LO:LB:g=original	!	!	!	!	!	!	!	!	!	!	!	!	!	!	!	!	!	!	!	!	!	!
=10	=10	=10	=10	=10	=10	=10	=10	=10	=10	=10	=10	=10	=10	=10	=10	=10	=10	=10	=10	=10	=10	=10	=10	=10	=10	=10	=10
!LO:TX:a:t=P:problem:mixed beam	!	!	!LO:TX:a:t=P:problem:mixed beam	!	!	!	!LO:TX:a:t=P:problem:mixed beam	!	!	!	!	!	!	!	!	!	!	!	!	!	!	!LO:TX:a:t=P:problem:mixed beam	!	!	!	!	!
8G\L	.	.	8g\L	.	8g/L	.	8b\L	.	.	.	.	.	.	.	.	.	.	.	.	8g/L	.	8dd\L	.	8dd\L	.	8bb\L	.
8G\	.	.	8G/	.	8g/	.	8gg\	.	.	.	.	.	.	.	.	.	.	.	.	8g/	.	8g/	.	8b\	.	8gg\	.
8GG/J	.	.	8G/J	.	8g/J	.	8g/J	.	.	.	.	.	.	.	.	.	.	.	.	8g/J	.	8g/J	.	8b\J	.	8gg\J	.
!	!	!	!	!	!	!LO:DY:a	!	!LO:DY:a	!	!	!	!	!	!	!	!	!	!	!	!	!	!	!	!	!	!	!
8r	.	.	8r	.	16B/LL	p	16d/LL	p	.	.	.	.	.	.	.	.	.	.	.	8r	.	8r	.	16b\LL	.	16dd\LL	.
.	.	.	.	.	16c/JJ	.	16e/JJ	.	.	.	.	.	.	.	.	.	.	.	.	.	.	.	.	16cc\JJ	.	16ee\JJ	.
=11	=11	=11	=11	=11	=11	=11	=11	=11	=11	=11	=11	=11	=11	=11	=11	=11	=11	=11	=11	=11	=11	=11	=11	=11	=11	=11	=11
!LO:TX:a:t=P:problem:mixed beam	!	!LO:DY:a:t=p.	!LO:TX:a:t=P:problem:mixed beam	!	!	!	!	!	!	!	!	!	!	!	!	!	!	!	!	!	!	!	!	!	!	!	!
8GG/L	.	p	8G/L	.	8d/L	.	8.f/L	.	.	.	.	.	.	.	.	.	.	.	.	8r	.	8r	.	8.dd\L	.	8.ffn\L	.
8G\J	7_	.	8g\J	.	16c/L	.	.	.	.	.	.	.	.	.	.	.	.	.	.	8G/L	.	8g/L	.	.	.	.	.
.	.	.	.	.	16B/JJ	.	16e/K	.	.	.	.	.	.	.	.	.	.	.	.	.	.	.	.	16cc\Jk	.	16ee\Jk	.
8r	.	.	8r	.	8e/L	.	8d/J	.	.	.	.	.	.	.	.	.	.	.	.	8G/	.	8g/	.	8b\L	.	8dd\L	.
8GG/	.	.	8G/	.	8d/J	.	16g/LL	.	.	.	.	.	.	.	.	.	.	.	.	8G/J	.	8g/J	.	16ee\L	.	16gg\L	.
.	X	.	.	.	.	.	16f/JJ	.	.	.	.	.	.	.	.	.	.	.	.	.	.	.	.	16dd\JJ	.	16ff\JJ	.
!	!	!	!	!	!	!	!	!	!	!	!	!	!	!	!	!	!	!	!	!	!	!	!	!LO:LB:g=original	!	!	!
=12	=12	=12	=12	=12	=12	=12	=12	=12	=12	=12	=12	=12	=12	=12	=12	=12	=12	=12	=12	=12	=12	=12	=12	=12	=12	=12	=12
8C/	.	.	8c\	.	16c/LL	.	16e/LL	.	.	.	.	.	.	.	.	.	.	.	.	4c/	.	4g/	.	16cc\LL	.	16ee\LL	.
.	.	.	.	.	16d/	.	16f/	.	.	.	.	.	.	.	.	.	.	.	.	.	.	.	.	16dd\	.	16ff\	.
8r	.	.	8r	.	16e/	.	16g/	.	.	.	.	.	.	.	.	.	.	.	.	.	.	.	.	16ee\	.	16gg\	.
.	.	.	.	.	16f/JJ	.	16a/JJ	.	.	.	.	.	.	.	.	.	.	.	.	.	.	.	.	16ff\JJ	.	16aa\JJ	.
!LO:TX:a:t=P:problem:mixed beam	!	!	!LO:TX:a:t=P:problem:mixed beam	!	!	!	!	!	!	!	!	!	!	!	!	!	!	!	!	!	!	!	!	!	!	!	!
8c\L	.	.	8c\L	.	16e/LL	.	16g/LL	.	.	.	.	.	.	.	.	.	.	.	.	4r	.	4r	.	16ee\LL	.	16gg\LL	.
.	.	.	.	.	16c/	.	16e/	.	.	.	.	.	.	.	.	.	.	.	.	.	.	.	.	16cc\	.	16ee\	.
8C/J	.	.	8C/J	.	16c/	.	16e/	.	.	.	.	.	.	.	.	.	.	.	.	.	.	.	.	16cc\	.	16ee\	.
.	.	.	.	.	16e/JJ	.	16g/JJ	.	.	.	.	.	.	.	.	.	.	.	.	.	.	.	.	16ee\JJ	.	16gg\JJ	.
!	!	!	!	!	!	!	!	!	!	!	!	!	!	!	!	!	!	!	!	!	!	!	!	!	!	!LO:LB:g=original	!
=13	=13	=13	=13	=13	=13	=13	=13	=13	=13	=13	=13	=13	=13	=13	=13	=13	=13	=13	=13	=13	=13	=13	=13	=13	=13	=13	=13
8r	.	.	8r	.	8.d/L	.	8.f/L	.	0r	.	.	0r	.	.	0r	.	.	0r	.	8r	.	8r	.	8.dd\L	.	8.ff\L	.
!LO:TX:a:t=P:problem:mixed beam	!	!	!	!	!	!	!	!	!	!	!	!	!	!	!	!	!	!	!	!	!	!	!	!	!	!	!
8GG/L	.	.	8G/L	.	.	.	.	.	.	.	.	.	.	.	.	.	.	.	.	8G/L	.	8g/L	.	.	.	.	.
.	.	.	.	.	16A/Jk	.	16e/K	.	.	.	.	.	.	.	.	.	.	.	.	.	.	.	.	16cc\Jk	.	16ee\Jk	.
8G\J	.	.	8G/J	.	8B/L	.	8d/J	.	.	.	.	.	.	.	.	.	.	.	.	8G/	.	8g/	.	8b\L	.	8dd\L	.
8r	.	.	8r	.	16e/L	.	16g/LL	.	.	.	.	.	.	.	.	.	.	.	.	8G/J	.	8g/J	.	16ee\L	.	16gg\L	.
.	.	.	.	.	16d/JJ	.	16f/JJ	.	.	.	.	.	.	.	.	.	.	.	.	.	.	.	.	16dd\JJ	.	16ff\JJ	.
=14	=14	=14	=14	=14	=14	=14	=14	=14	=14	=14	=14	=14	=14	=14	=14	=14	=14	=14	=14	=14	=14	=14	=14	=14	=14	=14	=14
!	!	!	!LO:TX:a:t=P:problem:mixed beam	!	!	!	!	!	!	!	!	!	!	!	!	!	!	!	!	!	!	!	!	!	!	!	!
8C/L	.	.	8c\L	.	16c/LL	.	16e/LL	.	.	.	.	.	.	.	.	.	.	.	.	4c/	.	8g/	.	16cc\LL	.	16ee\LL	.
.	.	.	.	.	16d/	.	16f/	.	.	.	.	.	.	.	.	.	.	.	.	.	.	.	.	16dd\	.	16ff\	.
8C/	.	.	8C/J	.	16e/	.	16g/	.	.	.	.	.	.	.	.	.	.	.	.	.	.	8r	.	16ee\	.	16gg\	.
.	.	.	.	.	16f/JJ	.	16a/JJ	.	.	.	.	.	.	.	.	.	.	.	.	.	.	.	.	16ff\JJ	.	16aa\JJ	.
8C/J	.	.	8c\	.	8e/	.	16g\LL|	.	.	.	.	.	.	.	.	.	.	.	.	4r	.	4r	.	8ee\	.	8gg\	.
.	.	.	.	.	.	.	16cc\|	.	.	.	.	.	.	.	.	.	.	.	.	.	.	.	.	.	.	.	.
8r	.	.	8r	.	8r	.	(16ee\	.	.	.	.	.	.	.	.	.	.	.	.	.	.	.	.	8r	.	8r	.
.	.	.	.	.	.	.	16cc\JJ)	.	.	.	.	.	.	.	.	.	.	.	.	.	.	.	.	.	.	.	.
!	!	!	!	!	!	!	!	!	!	!	!	!	!	!	!	!	!	!	!	!	!	!LO:LB:g=original	!	!	!	!	!
=15	=15	=15	=15	=15	=15	=15	=15	=15	=15	=15	=15	=15	=15	=15	=15	=15	=15	=15	=15	=15	=15	=15	=15	=15	=15	=15	=15
!	!	!	!	!	!	!	!	!LO:DY:a	!	!	!	!	!	!	!	!	!	!	!	!	!	!	!	!	!	!	!
.	.	.	.	.	.	.	16qqcc/	f	.	.	.	.	.	.	.	.	.	.	.	.	.	.	.	.	.	.	.
!	!	!LO:DY:rj:t=for	!	!	!	!LO:DY:a:t=for	!	!	!	!	!	!	!	!	!	!	!	!	!	!	!	!	!	!	!	!	!
8r	.	f	8r	.	4cc\	f	4bb-X\	.	.	.	.	.	.	.	.	.	.	.	.	8r	.	8r	.	4gg\	.	4bb-X\	.
!	!	!	!	!LO:DY:a:t=for	!	!	!	!	!	!	!	!	!	!	!	!	!	!	!	!	!	!	!	!	!	!	!
8E\L	6 -5	.	8g\	f	.	.	.	.	.	.	.	.	.	.	.	.	.	.	.	8c/L	.	8cc\L	.	.	.	.	.
!	!	!	!LO:TX:a:t=P:problem:mixed beam	!	!	!	!LO:TX:a:t=P:problem:mixed beam	!	!	!	!	!	!	!	!	!	!	!	!	!	!	!	!	!	!	!	!
8F\J	.	.	16f\LL	.	8cc\	.	16aa\LL	.	.	.	.	.	.	.	.	.	.	.	.	8c/J	.	8cc\J	.	8ff\	.	8aa\	.
.	.	.	16F/	.	.	.	16a/	.	.	.	.	.	.	.	.	.	.	.	.	.	.	.	.	.	.	.	.
16r	.	.	16f\	.	16r	.	16aa\	.	.	.	.	.	.	.	.	.	.	.	.	8r	.	8r	.	16r	.	16r	.
16c#X\	6 5	.	16e\JJ	.	16a\	.	16gg\JJ	.	.	.	.	.	.	.	.	.	.	.	.	.	.	.	.	16ee\	.	16gg\	.
!LO:LB:g=original	!	!	!	!	!	!	!	!	!	!	!	!	!	!	!	!	!	!	!	!LO:LB:g=original	!	!	!	!	!	!	!
=16	=16	=16	=16	=16	=16	=16	=16	=16	=16	=16	=16	=16	=16	=16	=16	=16	=16	=16	=16	=16	=16	=16	=16	=16	=16	=16	=16
!	!	!	!LO:TX:a:t=P:problem:mixed beam	!	!	!	!LO:TX:a:t=P:problem:mixed beam	!	!	!	!	!	!	!	!	!	!	!	!	!	!	!	!	!	!	!	!
16d\LL	3	.	16d\LL	.	8a/L	.	16ff\LL	.	.	.	.	.	.	.	.	.	.	.	.	4r	.	4r	.	8dd\	.	8ff\	.
16D\	.	.	16D/	.	.	.	16f/	.	.	.	.	.	.	.	.	.	.	.	.	.	.	.	.	.	.	.	.
16d\	3	.	16d\	.	16f/L	.	16ff\	.	.	.	.	.	.	.	.	.	.	.	.	.	.	.	.	8r	.	8r	.
16cn\JJ	3	.	16c\JJ	.	16e/JJ	.	16ee\JJ	.	.	.	.	.	.	.	.	.	.	.	.	.	.	.	.	.	.	.	.
!	!	!	!	!	!	!	!LO:LB:g=original	!	!	!	!	!	!	!	!	!	!	!	!	!	!	!	!	!	!	!	!
16B\LL	3	.	16B/LL	.	16d/LL	.	16dd\LL	.	.	.	.	.	.	.	.	.	.	.	.	8r	.	8r	.	8r	.	8r	.
16A\	3	.	16A/	.	16d/	.	16cc\	.	.	.	.	.	.	.	.	.	.	.	.	.	.	.	.	.	.	.	.
16G\	3_	.	16G/	.	16B/	.	16b\	.	.	.	.	.	.	.	.	.	.	.	.	8g/	.	8dd\	.	8dd\	.	8bb\	.
16F\JJ	X	.	16d/JJ	.	16g/JJ	.	16bb\JJ	.	.	.	.	.	.	.	.	.	.	.	.	.	.	.	.	.	.	.	.
=17	=17	=17	=17	=17	=17	=17	=17	=17	=17	=17	=17	=17	=17	=17	=17	=17	=17	=17	=17	=17	=17	=17	=17	=17	=17	=17	=17
!LO:TX:a:t=P:problem:mixed beam	!	!	!LO:TX:a:t=P:problem:mixed beam	!	!	!	!	!	!	!	!	!	!	!	!	!	!	!	!	!	!	!	!	!	!	!	!
8E\L	6	.	8e\L	.	8g/L	.	16ccc\LL	.	0r	.	.	0r	.	.	0r	.	.	0r	.	8e/	.	8cc\L	.	8ee\L	.	8ccc\L	.
.	.	.	.	.	.	.	16gg\	.	.	.	.	.	.	.	.	.	.	.	.	.	.	.	.	.	.	.	.
.	.	.	.	.	.	.	16qqgg/	.	.	.	.	.	.	.	.	.	.	.	.	.	.	.	.	.	.	.	.
8F\	3	.	8f\	.	16a/L	.	16ff\	.	.	.	.	.	.	.	.	.	.	.	.	8r	.	8dd\	.	8dd\	.	8aa\	.
!	!	!	!	!	!LO:N:vis=16	!	!	!	!	!	!	!	!	!	!	!	!	!	!	!	!	!	!	!	!	!	!
.	.	.	.	.	32g/L	.	32ee\L	.	.	.	.	.	.	.	.	.	.	.	.	.	.	.	.	.	.	.	.
!	!	!	!	!	!LO:N:vis=16	!	!	!	!	!	!	!	!	!	!	!	!	!	!	!	!	!	!	!	!	!	!
.	.	.	.	.	32f/JJJ	.	32dd\JJJ	.	.	.	.	.	.	.	.	.	.	.	.	.	.	.	.	.	.	.	.
8G\	4	.	8g\	.	8e/L	.	8cc\L	.	.	.	.	.	.	.	.	.	.	.	.	8cc\L	.	8ee\	.	8ee\	.	8ccc\	.
8GG/J	3	.	8G/J	.	8d/J	.	8b\J	.	.	.	.	.	.	.	.	.	.	.	.	8g\J	.	8dd\J	.	8dd\J	.	8bb\J	.
=18	=18	=18	=18	=18	=18	=18	=18	=18	=18	=18	=18	=18	=18	=18	=18	=18	=18	=18	=18	=18	=18	=18	=18	=18	=18	=18	=18
!LO:TX:a:t=P:problem:mixed beam	!	!	!LO:TX:a:t=P:problem:mixed beam	!	!	!	!	!	!	!	!	!	!	!	!	!	!	!	!	!	!	!	!	!	!	!	!
8C/L	.	.	8c\L	.	4e/	.	4cc\	.	.	.	.	.	.	.	.	.	.	.	.	4e/	.	4cc\	.	4ee\	.	4ccc\	.
8c\J	.	.	8C/J	.	.	.	.	.	.	.	.	.	.	.	.	.	.	.	.	.	.	.	.	.	.	.	.
!	!	!	!	!	!	!LO:DY:a	!	!LO:DY:a:t=p.	!	!	!	!	!	!	!	!	!	!	!	!	!	!	!	!	!	!	!LO:DY:a
4r	.	.	4r	.	16c/LL	p	16e/LL	p	.	.	.	.	.	.	.	.	.	.	.	4r	.	4r	.	16cc\LL	.	16ee\LL	p
.	.	.	.	.	16d/	.	16f/	.	.	.	.	.	.	.	.	.	.	.	.	.	.	.	.	16dd\	.	16ff\	.
.	.	.	.	.	16e/	.	16g/	.	.	.	.	.	.	.	.	.	.	.	.	.	.	.	.	16ee\	.	16gg\	.
.	.	.	.	.	16f/JJ	.	16a/JJ	.	.	.	.	.	.	.	.	.	.	.	.	.	.	.	.	16ff\JJ	.	16aa\JJ	.
!	!	!	!	!	!LO:LB:g=original	!	!	!	!	!	!	!	!	!	!	!	!	!	!	!	!	!	!	!	!	!	!
=19	=19	=19	=19	=19	=19	=19	=19	=19	=19	=19	=19	=19	=19	=19	=19	=19	=19	=19	=19	=19	=19	=19	=19	=19	=19	=19	=19
!	!	!LO:DY:a:t=p.	!	!	!	!	!	!	!	!	!	!	!	!	!	!	!	!	!	!	!	!	!	!	!	!	!
8r	.	p	8r	.	8e/L	.	8g/L	.	.	.	.	.	.	.	.	.	.	.	.	8r	.	8r	.	8ee\L	.	8gg\L	.
!LO:TX:a:t=P:problem:mixed beam	!	!	!LO:TX:a:t=P:problem:mixed beam	!LO:DY:a:t=p.	!	!	!	!	!	!	!	!	!	!	!	!	!	!	!	!	!LO:DY:a	!	!LO:DY:a:rj	!	!	!	!
8C/L	.	.	8c\L	p	16c/L	.	16e/L	.	.	.	.	.	.	.	.	.	.	.	.	16cc\LL	p	16ee\LL	p	16cc\L	.	16ee\L	.
.	.	.	.	.	16e/JJ	.	16g/JJ	.	.	.	.	.	.	.	.	.	.	.	.	16ee\JJ	.	16gg\JJ	.	16ee\JJ	.	16gg\JJ	.
8G\	.	.	8G/	.	16e/LL	.	16g/LL	.	.	.	.	.	.	.	.	.	.	.	.	16ee\LL	.	16gg\LL	.	16ee\LL	.	16gg\LL	.
.	.	.	.	.	16d/	.	16f/	.	.	.	.	.	.	.	.	.	.	.	.	16dd\	.	16ff\	.	16dd\	.	16ff\	.
8GG/J	.	.	8G/J	.	16c/	.	16e/	.	.	.	.	.	.	.	.	.	.	.	.	16cc\	.	16ee\	.	16cc\	.	16ee\	.
.	.	.	.	.	16B/JJ	.	16d/JJ	.	.	.	.	.	.	.	.	.	.	.	.	16g\JJ	.	16dd\JJ	.	16b\JJ	.	16dd\JJ	.
=20	=20	=20	=20	=20	=20	=20	=20	=20	=20	=20	=20	=20	=20	=20	=20	=20	=20	=20	=20	=20	=20	=20	=20	=20	=20	=20	=20
!LO:TX:a:t=P:problem:mixed beam	!	!LO:DY:a:t=for	!	!	!	!LO:DY:a:t=for	!LO:TX:a:t=P:problem:mixed beam	!LO:DY:a:rj	!	!	!	!	!	!	!	!	!	!	!	!	!LO:DY:a:t=f.	!	!LO:DY:a:t=for	!	!	!	!LO:DY:a:rj:t=for
8C/L	.	f	8c\L	.	8c/L	f	8c/L	f	.	.	.	.	.	.	.	.	.	.	.	8e/L	f	8cc\L	f	8cc\L	.	8cc\L	f
8c\	.	.	8c\	.	8e 8G/	.	8cc\	.	.	.	.	.	.	.	.	.	.	.	.	8e/	.	8cc\	.	8ee\	.	8ccc\	.
8C/J	.	.	8c\J	.	8eJ 8G/	.	8cc\J	.	.	.	.	.	.	.	.	.	.	.	.	8e/J	.	8cc\J	.	8ee\J	.	8ccc\J	.
!	!	!	!	!	!	!	!	!LO:DY:a	!	!	!	!	!	!	!	!	!	!	!	!	!	!	!	!	!	!	!
8r	.	.	8r	.	8r	.	16cc\LL	pp	.	.	.	.	.	.	.	.	.	.	.	8r	.	8r	.	8r	.	8r	.
.	.	.	.	.	.	.	16cc\JJ	.	.	.	.	.	.	.	.	.	.	.	.	.	.	.	.	.	.	.	.
!	!	!	!LO:LB:g=original	!	!	!	!	!	!	!	!	!	!	!	!	!	!	!	!	!	!	!	!	!	!	!	!
=21	=21	=21	=21	=21	=21	=21	=21	=21	=21	=21	=21	=21	=21	=21	=21	=21	=21	=21	=21	=21	=21	=21	=21	=21	=21	=21	=21
!	!	!	!	!	!	!LO:DY:a	!	!	!	!	!	!	!	!	!	!	!	!LO:TX:a:Bi:rj:t=Solo	!	!	!	!	!	!LO:TX:a:t=17	!	!	!
8r	.	p	8r	.	8r	pp	8.cc\L	.	0r	.	.	0r	.	.	0r	.	.	8.cc\L	Do-	0r	.	0r	.	0r	.	0r	.
8c\L	.	.	8c/L	.	8e/L	.	.	.	.	.	.	.	.	.	.	.	.	.	.	.	.	.	.	.	.	.	.
.	.	.	.	.	.	.	32dd\LL	.	.	.	.	.	.	.	.	.	.	32dd\LL	.	.	.	.	.	.	.	.	.
.	.	.	.	.	.	.	32ee\JJJ	.	.	.	.	.	.	.	.	.	.	32ee\JJJ	.	.	.	.	.	.	.	.	.
8A\	6	.	8A/	.	8f/	.	16ee\LL	.	.	.	.	.	.	.	.	.	.	16ee\LL	-mi-	.	.	.	.	.	.	.	.
.	.	.	.	.	.	.	16dd\	.	.	.	.	.	.	.	.	.	.	16dd\JJ	.	.	.	.	.	.	.	.	.
8F\J	6	.	8F/J	.	8a/J	.	16ff\	.	.	.	.	.	.	.	.	.	.	16ff\LL	-ne	.	.	.	.	.	.	.	.
.	.	.	.	.	.	.	16dd\JJ	.	.	.	.	.	.	.	.	.	.	16dd\JJ	.	.	.	.	.	.	.	.	.
=22	=22	=22	=22	=22	=22	=22	=22	=22	=22	=22	=22	=22	=22	=22	=22	=22	=22	=22	=22	=22	=22	=22	=22	=22	=22	=22	=22
8G\L	.	.	8G/L	.	8d/L	.	16cc\LL	.	.	.	.	.	.	.	.	.	.	16cc\LL	De-	.	.	.	.	.	.	.	.
.	.	.	.	.	.	.	16b\	.	.	.	.	.	.	.	.	.	.	16b\	.	.	.	.	.	.	.	.	.
8B\	6 5	.	8d/J	.	8f/J	.	16aa\	.	.	.	.	.	.	.	.	.	.	16aa\	.	.	.	.	.	.	.	.	.
.	.	.	.	.	.	.	16gg\JJ	.	.	.	.	.	.	.	.	.	.	16gg\JJ	.	.	.	.	.	.	.	.	.
8c\J	.	.	16c\LL	.	16e/LL	.	8gg\	.	.	.	.	.	.	.	.	.	.	8gg\	-us	.	.	.	.	.	.	.	.
.	.	.	16c\	.	16e/	.	.	.	.	.	.	.	.	.	.	.	.	.	.	.	.	.	.	.	.	.	.
8r	.	.	16e\	.	16g/	.	16r	.	.	.	.	.	.	.	.	.	.	8r	.	.	.	.	.	.	.	.	.
.	.	.	16c\JJ	.	16e/JJ	.	16ccc\	.	.	.	.	.	.	.	.	.	.	.	.	.	.	.	.	.	.	.	.
=23	=23	=23	=23	=23	=23	=23	=23	=23	=23	=23	=23	=23	=23	=23	=23	=23	=23	=23	=23	=23	=23	=23	=23	=23	=23	=23	=23
8r	.	.	8r	.	8r	.	16gg\LL	.	.	.	.	.	.	.	.	.	.	16gg\LL	Rex	.	.	.	.	.	.	.	.
.	.	.	.	.	.	.	16ee\	.	.	.	.	.	.	.	.	.	.	16ee\	.	.	.	.	.	.	.	.	.
!	!	!	!LO:TX:a:t=P:problem:mixed beam	!	!	!	!	!	!	!	!	!	!	!	!	!	!	!	!	!	!	!	!	!	!	!	!
8F\L	6	.	8d\L	.	8a/L	.	16ff\	.	.	.	.	.	.	.	.	.	.	16ff\	.	.	.	.	.	.	.	.	.
.	.	.	.	.	.	.	16dd\JJ	.	.	.	.	.	.	.	.	.	.	16dd\JJ	.	.	.	.	.	.	.	.	.
8G\	.	.	8G/	.	8d/	.	16cc\LL	.	.	.	.	.	.	.	.	.	.	16cc\LL	Cae-	.	.	.	.	.	.	.	.
.	.	.	.	.	.	.	16b\	.	.	.	.	.	.	.	.	.	.	16b\JJ	.	.	.	.	.	.	.	.	.
8B\J	6 3	.	8G/J	.	8d/J	.	16dd\	.	.	.	.	.	.	.	.	.	.	16dd\LL	.	.	.	.	.	.	.	.	.
.	.	.	.	.	.	.	16ff\JJ	.	.	.	.	.	.	.	.	.	.	16ff\JJ	.	.	.	.	.	.	.	.	.
=24	=24	=24	=24	=24	=24	=24	=24	=24	=24	=24	=24	=24	=24	=24	=24	=24	=24	=24	=24	=24	=24	=24	=24	=24	=24	=24	=24
!LO:TX:a:t=P:problem:mixed beam	!	!	!	!	!	!	!	!	!	!	!	!	!	!	!	!	!	!	!	!	!	!	!	!	!	!	!
8c\L	.	.	8G/L	.	8d/L	.	8ff\L	.	.	.	.	.	.	.	.	.	.	8ff\	-les-	.	.	.	.	.	.	.	.
8C/	.	.	8c/	.	8c/J	.	8ee\J	.	.	.	.	.	.	.	.	.	.	8ee\	-tis	.	.	.	.	.	.	.	.
8C/J	.	.	8c/J	.	4r	.	8r	.	.	.	.	.	.	.	.	.	.	8r	.	.	.	.	.	.	.	.	.
8r	.	.	8r	.	.	.	16g/LL	.	.	.	.	.	.	.	.	.	.	16g\	De-	.	.	.	.	.	.	.	.
.	.	.	.	.	.	.	16g/JJ	.	.	.	.	.	.	.	.	.	.	16g\	-us	.	.	.	.	.	.	.	.
!LO:LB:g=original	!	!	!	!	!	!	!LO:LB:g=original	!	!	!	!	!	!	!	!	!	!	!	!	!	!	!	!	!	!	!	!
=25	=25	=25	=25	=25	=25	=25	=25	=25	=25	=25	=25	=25	=25	=25	=25	=25	=25	=25	=25	=25	=25	=25	=25	=25	=25	=25	=25
!	!	!	!	!	!	!	!LO:TX:a:t=P:problem:mixed beam	!	!	!	!	!	!	!	!	!	!	!	!	!	!	!	!	!	!	!	!
8C/	.	.	16e\LL	.	16G/LL	.	8.g/L	.	0r	.	.	0r	.	.	0r	.	.	8.g\L	Pa-	0r	.	0r	.	0r	.	0r	.
.	.	.	16c\	.	16e/	.	.	.	.	.	.	.	.	.	.	.	.	.	.	.	.	.	.	.	.	.	.
8r	.	.	16e\	.	16G/	.	.	.	.	.	.	.	.	.	.	.	.	.	.	.	.	.	.	.	.	.	.
.	.	.	16c\JJ	.	16e/JJ	.	16ee\Jk	.	.	.	.	.	.	.	.	.	.	16ee\Jk	.	.	.	.	.	.	.	.	.
8G\	.	.	16d\LL	.	16G/LL	.	16ff\LL	.	.	.	.	.	.	.	.	.	.	16ff\LL	.	.	.	.	.	.	.	.	.
.	.	.	16B\	.	16f/	.	16dd\	.	.	.	.	.	.	.	.	.	.	16dd\	.	.	.	.	.	.	.	.	.
8r	.	.	16d\	.	16G/	.	16cc\	.	.	.	.	.	.	.	.	.	.	16cc\	.	.	.	.	.	.	.	.	.
.	.	.	16B\JJ	.	16f/JJ	.	16b\JJ	.	.	.	.	.	.	.	.	.	.	16b\JJ	.	.	.	.	.	.	.	.	.
=26	=26	=26	=26	=26	=26	=26	=26	=26	=26	=26	=26	=26	=26	=26	=26	=26	=26	=26	=26	=26	=26	=26	=26	=26	=26	=26	=26
!	!	!	!	!	!	!	!LO:TX:a:t=P:problem:mixed beam	!	!	!	!	!	!	!	!	!	!	!	!	!	!	!	!	!	!	!	!
8C/	.	.	16e\LL	.	16G/LL	.	(16cc\LL	.	.	.	.	.	.	.	.	.	.	8cc\	-ter	.	.	.	.	.	.	.	.
.	.	.	16c\	.	16e/	.	16g/)	.	.	.	.	.	.	.	.	.	.	.	.	.	.	.	.	.	.	.	.
8r	.	.	16e\	.	16G/	.	16g'/	.	.	.	.	.	.	.	.	.	.	16r	.	.	.	.	.	.	.	.	.
.	.	.	16c\JJ	.	16e/JJ	.	16g'/JJ	.	.	.	.	.	.	.	.	.	.	16ee\	Pa-	.	.	.	.	.	.	.	.
!	!	!	!	!	!	!	!	!	!	!	!	!	!	!	!	!	!	!LO:LB:g=original	!	!	!	!	!	!	!	!	!
8GG/	.	.	16d\LL	.	16G/LL	.	16ff\LL	.	.	.	.	.	.	.	.	.	.	16ff\LL	.	.	.	.	.	.	.	.	.
.	.	.	16B\	.	16f/	.	16dd\	.	.	.	.	.	.	.	.	.	.	16dd\	.	.	.	.	.	.	.	.	.
8r	.	.	16d\	.	16G/	.	16cc\	.	.	.	.	.	.	.	.	.	.	16cc\	.	.	.	.	.	.	.	.	.
.	.	.	16B\JJ	.	16f/JJ	.	16b\JJ	.	.	.	.	.	.	.	.	.	.	16b\JJ	.	.	.	.	.	.	.	.	.
=27	=27	=27	=27	=27	=27	=27	=27	=27	=27	=27	=27	=27	=27	=27	=27	=27	=27	=27	=27	=27	=27	=27	=27	=27	=27	=27	=27
8C/L	.	.	8c\L	.	8eL 8G/	.	16cc\LL|	.	.	.	.	.	.	.	.	.	.	8cc\	-ter	.	.	.	.	.	.	.	.
.	.	.	.	.	.	.	16gg\|	.	.	.	.	.	.	.	.	.	.	.	.	.	.	.	.	.	.	.	.
8C/J	.	.	8c\	.	8e/J	.	(16aa\	.	.	.	.	.	.	.	.	.	.	8r	.	.	.	.	.	.	.	.	.
.	.	.	.	.	.	.	16gg\JJ)	.	.	.	.	.	.	.	.	.	.	.	.	.	.	.	.	.	.	.	.
8E\L	6	.	8e\	.	8cc\L	.	(16gg\LL	.	.	.	.	.	.	.	.	.	.	4r	.	.	.	.	.	.	.	.	.
.	.	.	.	.	.	.	16ccc\)	.	.	.	.	.	.	.	.	.	.	.	.	.	.	.	.	.	.	.	.
8E\J	.	.	8e\J	.	8cc\J	.	16gg\|	.	.	.	.	.	.	.	.	.	.	.	.	.	.	.	.	.	.	.	.
.	.	.	.	.	.	.	16gg\JJ|	.	.	.	.	.	.	.	.	.	.	.	.	.	.	.	.	.	.	.	.
=28	=28	=28	=28	=28	=28	=28	=28	=28	=28	=28	=28	=28	=28	=28	=28	=28	=28	=28	=28	=28	=28	=28	=28	=28	=28	=28	=28
!LO:TX:a:t=P:problem:mixed beam	!	!	!	!	!	!	!	!	!	!	!	!	!	!	!	!	!	!	!	!	!	!	!	!	!	!	!
.	.	.	.	.	.	.	16qqgg#X/	.	.	.	.	.	.	.	.	.	.	8qqbb#X/	.	.	.	.	.	.	.	.	.
8F\L	.	.	4f\	.	4cc\	.	4aa\	.	.	.	.	.	.	.	.	.	.	4aa\	Pa-	.	.	.	.	.	.	.	.
8FF/J	.	.	.	.	.	.	.	.	.	.	.	.	.	.	.	.	.	.	.	.	.	.	.	.	.	.	.
4r	.	.	4r	.	4r	.	16gg#y\LL	.	.	.	.	.	.	.	.	.	.	16ggn\LL	-ter	.	.	.	.	.	.	.	.
.	.	.	.	.	.	.	16ff\	.	.	.	.	.	.	.	.	.	.	16ff\JJ	.	.	.	.	.	.	.	.	.
.	.	.	.	.	.	.	16ee\	.	.	.	.	.	.	.	.	.	.	16ee\LL	o-	.	.	.	.	.	.	.	.
.	.	.	.	.	.	.	16dd\JJ	.	.	.	.	.	.	.	.	.	.	16dd\JJ	.	.	.	.	.	.	.	.	.
=29	=29	=29	=29	=29	=29	=29	=29	=29	=29	=29	=29	=29	=29	=29	=29	=29	=29	=29	=29	=29	=29	=29	=29	=29	=29	=29	=29
8r	.	.	8r	.	8r	.	(16cc#X\LL	.	0r	.	.	0r	.	.	0r	.	.	4dd\	-mni	0r	.	0r	.	0r	.	0r	.
.	.	.	.	.	.	.	16dd\)	.	.	.	.	.	.	.	.	.	.	.	.	.	.	.	.	.	.	.	.
8F\L	6	.	8f\L	.	8a/L	.	16dd\|	.	.	.	.	.	.	.	.	.	.	.	.	.	.	.	.	.	.	.	.
.	.	.	.	.	.	.	16dd\JJ|	.	.	.	.	.	.	.	.	.	.	.	.	.	.	.	.	.	.	.	.
8F#X\	6 3	.	8f#X\	.	8a 8d/	.	16dd\LL	.	.	.	.	.	.	.	.	.	.	16dd\LL	po-	.	.	.	.	.	.	.	.
.	.	.	.	.	.	.	16ccn\	.	.	.	.	.	.	.	.	.	.	16cc\J	.	.	.	.	.	.	.	.	.
8F#\J	.	.	8f#\J	.	8aJ 8d/	.	16cc\	.	.	.	.	.	.	.	.	.	.	8cc\J	.	.	.	.	.	.	.	.	.
.	.	.	.	.	.	.	16cc\JJ	.	.	.	.	.	.	.	.	.	.	.	.	.	.	.	.	.	.	.	.
!	!	!	!	!	!LO:LB:g=original	!	!	!	!	!	!	!	!	!	!	!	!	!	!	!	!	!	!	!	!	!	!
=30	=30	=30	=30	=30	=30	=30	=30	=30	=30	=30	=30	=30	=30	=30	=30	=30	=30	=30	=30	=30	=30	=30	=30	=30	=30	=30	=30
!	!	!	!	!	!	!	!LO:TX:a:t=P:problem:mixed beam	!	!	!	!	!	!	!	!	!	!	!	!	!	!	!	!	!	!	!	!
8G\	.	.	8g\L	.	8g/L	.	8b\L	.	.	.	.	.	.	.	.	.	.	8b\	-tens	.	.	.	.	.	.	.	.
8r	.	.	8g\J	.	8g/	.	8gg\	.	.	.	.	.	.	.	.	.	.	8r	.	.	.	.	.	.	.	.	.
!LO:TX:a:t=P:problem:mixed beam	!	!	!LO:TX:a:t=P:problem:mixed beam	!	!	!	!	!	!	!	!	!	!	!	!	!	!	!	!	!	!	!	!	!	!	!	!
16G\LL	.	.	16g\LL	.	8g/J	.	8g/J	.	.	.	.	.	.	.	.	.	.	4r	.	.	.	.	.	.	.	.	.
16GG/	.	.	16G/	.	.	.	.	.	.	.	.	.	.	.	.	.	.	.	.	.	.	.	.	.	.	.	.
16BB/	.	.	16B/	.	8r	.	8r	.	.	.	.	.	.	.	.	.	.	.	.	.	.	.	.	.	.	.	.
16D/JJ	.	.	16d/JJ	.	.	.	.	.	.	.	.	.	.	.	.	.	.	.	.	.	.	.	.	.	.	.	.
=31	=31	=31	=31	=31	=31	=31	=31	=31	=31	=31	=31	=31	=31	=31	=31	=31	=31	=31	=31	=31	=31	=31	=31	=31	=31	=31	=31
8G\	.	.	8g\	.	16g/LL	.	16b\LL	.	.	.	.	.	.	.	.	.	.	16b\LL	Do-	.	.	.	.	.	.	.	.
.	.	.	.	.	16a/	.	16cc\	.	.	.	.	.	.	.	.	.	.	16cc\	.	.	.	.	.	.	.	.	.
8r	.	.	8r	.	16b/	.	16dd\	.	.	.	.	.	.	.	.	.	.	16dd\	.	.	.	.	.	.	.	.	.
.	.	.	.	.	16cc/JJ	.	16ee\JJ	.	.	.	.	.	.	.	.	.	.	16ee\JJ	.	.	.	.	.	.	.	.	.
8r	.	.	8r	.	8b\L	.	16dd\LL	.	.	.	.	.	.	.	.	.	.	8.dd\	-mi-	.	.	.	.	.	.	.	.
.	.	.	.	.	.	.	16gg\	.	.	.	.	.	.	.	.	.	.	.	.	.	.	.	.	.	.	.	.
8G\	.	.	8g\	.	8b\J	.	16bb\	.	.	.	.	.	.	.	.	.	.	.	.	.	.	.	.	.	.	.	.
.	.	.	.	.	.	.	16gg\JJ	.	.	.	.	.	.	.	.	.	.	16gg\	-ne	.	.	.	.	.	.	.	.
!	!	!	!LO:LB:g=original	!	!	!	!	!	!	!	!	!	!	!	!	!	!	!	!	!	!	!	!	!	!	!	!
=32	=32	=32	=32	=32	=32	=32	=32	=32	=32	=32	=32	=32	=32	=32	=32	=32	=32	=32	=32	=32	=32	=32	=32	=32	=32	=32	=32
8A\L	6\	.	8a\L	.	8cc\L	.	(16gg\LL	.	.	.	.	.	.	.	.	.	.	16gg\LL	Fi-	.	.	.	.	.	.	.	.
.	.	.	.	.	.	.	16ff#X\JJ)	.	.	.	.	.	.	.	.	.	.	16ff#X\JJ	.	.	.	.	.	.	.	.	.
8G\	6	.	8g\J	.	8b\	.	16r	.	.	.	.	.	.	.	.	.	.	16r	.	.	.	.	.	.	.	.	.
.	.	.	.	.	.	.	16ee\|	.	.	.	.	.	.	.	.	.	.	16ee\	-li	.	.	.	.	.	.	.	.
!	!	!	!LO:TX:a:t=P:problem:mixed beam	!	!	!	!	!	!	!	!	!	!	!	!	!	!	!	!	!	!	!	!	!	!	!	!
8F#X\	6	.	8f#X\L	.	8a\	.	16ee\LL	.	.	.	.	.	.	.	.	.	.	16ee\LL	u-	.	.	.	.	.	.	.	.
.	.	.	.	.	.	.	16dd\JJ	.	.	.	.	.	.	.	.	.	.	16dd\JJ	.	.	.	.	.	.	.	.	.
8D\J	7	.	8A/J	.	8f#X\J	.	16r	.	.	.	.	.	.	.	.	.	.	16r	.	.	.	.	.	.	.	.	.
.	.	.	.	.	.	.	16cc\	.	.	.	.	.	.	.	.	.	.	16cc\	-ni-	.	.	.	.	.	.	.	.
=33	=33	=33	=33	=33	=33	=33	=33	=33	=33	=33	=33	=33	=33	=33	=33	=33	=33	=33	=33	=33	=33	=33	=33	=33	=33	=33	=33
8G\	.	.	8G/	.	16g\LL	.	(16b\LL	.	0r	.	.	0r	.	.	0r	.	.	16b\LL	-ge-	0r	.	0r	.	0r	.	0r	.
.	.	.	.	.	16a\	.	16cc\)	.	.	.	.	.	.	.	.	.	.	16cc\JJ	.	.	.	.	.	.	.	.	.
8r	.	.	8r	.	16b\	.	(16dd\	.	.	.	.	.	.	.	.	.	.	16dd\LL	-ni-	.	.	.	.	.	.	.	.
.	.	.	.	.	16cc\JJ	.	16ee\JJ)	.	.	.	.	.	.	.	.	.	.	16ee\JJ	.	.	.	.	.	.	.	.	.
!	!	!	!	!	!	!	!LO:LB:g=original	!	!	!	!	!	!	!	!	!	!	!	!	!	!	!	!	!	!	!	!
8r	.	.	8r	.	8b\L	.	8dd\L	.	.	.	.	.	.	.	.	.	.	8dd\	-te	.	.	.	.	.	.	.	.
8G\	.	.	8g\	.	8b\J	.	32ff#X\LL	.	.	.	.	.	.	.	.	.	.	16r	.	.	.	.	.	.	.	.	.
.	.	.	.	.	.	.	32gg\	.	.	.	.	.	.	.	.	.	.	.	.	.	.	.	.	.	.	.	.
.	.	.	.	.	.	.	32bb\	.	.	.	.	.	.	.	.	.	.	16gg\	Je-	.	.	.	.	.	.	.	.
.	.	.	.	.	.	.	32gg\JJJ	.	.	.	.	.	.	.	.	.	.	.	.	.	.	.	.	.	.	.	.
!	!	!	!	!	!	!	!	!	!	!	!	!	!	!	!	!	!	!LO:LB:g=original	!	!	!	!	!	!	!	!	!
=34	=34	=34	=34	=34	=34	=34	=34	=34	=34	=34	=34	=34	=34	=34	=34	=34	=34	=34	=34	=34	=34	=34	=34	=34	=34	=34	=34
!	!	!	!	!	!	!	!LO:TX:t=P:problem:brak dwóch taktów	!	!	!	!	!	!	!	!	!	!	!	!	!	!	!	!	!	!	!	!
8A\L	6\	.	8a\L	.	8cc\L	.	2ryy	.	.	.	.	.	.	.	.	.	.	16gg\LL	.	.	.	.	.	.	.	.	.
.	.	.	.	.	.	.	.	.	.	.	.	.	.	.	.	.	.	16ff#X\JJ	.	.	.	.	.	.	.	.	.
8G\	6	.	8g\J	.	8b\	.	.	.	.	.	.	.	.	.	.	.	.	16r	.	.	.	.	.	.	.	.	.
.	.	.	.	.	.	.	.	.	.	.	.	.	.	.	.	.	.	16ee\	.	.	.	.	.	.	.	.	.
!	!	!	!LO:TX:a:t=P:problem:mixed beam	!	!	!	!	!	!	!	!	!	!	!	!	!	!	!	!	!	!	!	!	!	!	!	!
8F#X\	6	.	8f#X\L	.	8a\	.	.	.	.	.	.	.	.	.	.	.	.	16ee\LL	.	.	.	.	.	.	.	.	.
.	.	.	.	.	.	.	.	.	.	.	.	.	.	.	.	.	.	16dd\JJ	.	.	.	.	.	.	.	.	.
8D\J	7	.	8A/J	.	8g\J	.	.	.	.	.	.	.	.	.	.	.	.	16r	.	.	.	.	.	.	.	.	.
.	.	.	.	.	.	.	.	.	.	.	.	.	.	.	.	.	.	16cc\	-su	.	.	.	.	.	.	.	.
!LO:LB:g=original	!	!	!	!	!	!	!	!	!	!	!	!	!	!	!	!	!	!	!	!	!	!	!	!	!	!	!
=35	=35	=35	=35	=35	=35	=35	=35	=35	=35	=35	=35	=35	=35	=35	=35	=35	=35	=35	=35	=35	=35	=35	=35	=35	=35	=35	=35
8G\	.	.	8G/	.	16g\LL	.	2ryy	.	.	.	.	.	.	.	.	.	.	16b\LL	Chri-	.	.	.	.	.	.	.	.
.	.	.	.	.	16a\	.	.	.	.	.	.	.	.	.	.	.	.	16cc\	.	.	.	.	.	.	.	.	.
8r	.	.	8r	.	16b\	.	.	.	.	.	.	.	.	.	.	.	.	16dd\	.	.	.	.	.	.	.	.	.
.	.	.	.	.	16cc\JJ	.	.	.	.	.	.	.	.	.	.	.	.	16ee\JJ	.	.	.	.	.	.	.	.	.
8r	.	.	8G/	.	8b\	.	.	.	.	.	.	.	.	.	.	.	.	8dd\	-ste	.	.	.	.	.	.	.	.
8G\	.	.	8r	.	8r	.	.	.	.	.	.	.	.	.	.	.	.	8r	.	.	.	.	.	.	.	.	.
=36	=36	=36	=36	=36	=36	=36	=36	=36	=36	=36	=36	=36	=36	=36	=36	=36	=36	=36	=36	=36	=36	=36	=36	=36	=36	=36	=36
8r	.	.	8r	.	8r	.	8r	.	.	.	.	.	.	.	.	.	.	4ee\	Do-	.	.	.	.	.	.	.	.
8c\L	3_	.	8c\L	.	8g/L	.	8ee\L	.	.	.	.	.	.	.	.	.	.	.	.	.	.	.	.	.	.	.	.
.	.	.	.	.	.	.	.	.	.	.	.	.	.	.	.	.	.	8qqff/	.	.	.	.	.	.	.	.	.
8c\	.	.	8c\	.	8g/	.	8ee\	.	.	.	.	.	.	.	.	.	.	16ee\LL	-mi-	.	.	.	.	.	.	.	.
.	.	.	.	.	.	.	.	.	.	.	.	.	.	.	.	.	.	32dd#X\L	.	.	.	.	.	.	.	.	.
.	.	.	.	.	.	.	.	.	.	.	.	.	.	.	.	.	.	32ee\JJJ	.	.	.	.	.	.	.	.	.
.	.	.	.	.	.	.	.	.	.	.	.	.	.	.	.	.	.	8qqgg/	.	.	.	.	.	.	.	.	.
8c\J	.	.	8c\J	.	8g/J	.	8ee\J	.	.	.	.	.	.	.	.	.	.	32ff\LLL	-ne	.	.	.	.	.	.	.	.
.	.	.	.	.	.	.	.	.	.	.	.	.	.	.	.	.	.	32ee\	.	.	.	.	.	.	.	.	.
.	.	.	.	.	.	.	.	.	.	.	.	.	.	.	.	.	.	32dd#X\	.	.	.	.	.	.	.	.	.
.	X	.	.	.	.	.	.	.	.	.	.	.	.	.	.	.	.	32ee\JJJ	.	.	.	.	.	.	.	.	.
=37	=37	=37	=37	=37	=37	=37	=37	=37	=37	=37	=37	=37	=37	=37	=37	=37	=37	=37	=37	=37	=37	=37	=37	=37	=37	=37	=37
8r	.	.	8r	.	8r	.	8r	.	0r	.	.	0r	.	.	0r	.	.	4ff#X\	De-	2r	.	2r	.	2r	.	2r	.
8c\L	4 2	.	8d\L	.	8a/L	.	8ff#X\L	.	.	.	.	.	.	.	.	.	.	.	.	.	.	.	.	.	.	.	.
.	.	.	.	.	.	.	.	.	.	.	.	.	.	.	.	.	.	8qqgg/	.	.	.	.	.	.	.	.	.
8c\	.	.	8d\	.	8a/	.	8ff#\	.	.	.	.	.	.	.	.	.	.	16ff#\LL	.	.	.	.	.	.	.	.	.
.	.	.	.	.	.	.	.	.	.	.	.	.	.	.	.	.	.	32ee\L	.	.	.	.	.	.	.	.	.
.	.	.	.	.	.	.	.	.	.	.	.	.	.	.	.	.	.	32ff#\JJJ	.	.	.	.	.	.	.	.	.
8A\J	6\	.	8d\J	.	8cc/J	.	8ff#\J	.	.	.	.	.	.	.	.	.	.	32gg\LLL	-us	.	.	.	.	.	.	.	.
.	.	.	.	.	.	.	.	.	.	.	.	.	.	.	.	.	.	32ff#\	.	.	.	.	.	.	.	.	.
.	.	.	.	.	.	.	.	.	.	.	.	.	.	.	.	.	.	32ee\	.	.	.	.	.	.	.	.	.
.	.	.	.	.	.	.	.	.	.	.	.	.	.	.	.	.	.	32ff#\JJJ	.	.	.	.	.	.	.	.	.
!	!	!	!	!	!	!	!	!	!	!	!	!	!	!	!	!	!	!	!	!	!	!	!	!LO:LB:g=original	!	!LO:LB:g=original	!
=38	=38	=38	=38	=38	=38	=38	=38	=38	=38	=38	=38	=38	=38	=38	=38	=38	=38	=38	=38	=38	=38	=38	=38	=38	=38	=38	=38
*	*	*	*	*	*	*	*	*	*	*	*	*	*	*	*	*	*	*	*	*2\right	*	*	*	*2\right	*	*	*
!	!	!	!	!	!	!	!	!	!	!	!	!	!	!	!	!	!	!	!	!	!LO:DY:a	!	!LO:DY:a	!	!	!	!LO:DY:a:rj
8G\L	.	.	8G/L	.	16B/LL	.	(16gg\LL	.	.	.	.	.	.	.	.	.	.	16gg\LL	A-	2dd\	pp	2dd\	pp	2dd\	.	2dd\	p
.	.	.	.	.	16d/	.	16dd\JJ)	.	.	.	.	.	.	.	.	.	.	16dd\JJ	.	.	.	.	.	.	.	.	.
8A\	6\	.	8A/J	.	16c/	.	16r	.	.	.	.	.	.	.	.	.	.	4dd\	.	.	.	.	.	.	.	.	.
.	.	.	.	.	16d/JJ	.	16ff#X\|	.	.	.	.	.	.	.	.	.	.	.	.	.	.	.	.	.	.	.	.
*	*	*	*	*	*rep	*	*	*	*	*	*	*	*	*	*	*	*	*	*	*	*	*	*	*	*	*	*
8G\	.	.	8G/L	.	16B/LL	.	(16gg\LL	.	.	.	.	.	.	.	.	.	.	.	.	.	.	.	.	.	.	.	.
.	.	.	.	.	16d/	.	16dd\JJ)	.	.	.	.	.	.	.	.	.	.	.	.	.	.	.	.	.	.	.	.
8D\J	.	.	8A/J	.	16c/	.	16r	.	.	.	.	.	.	.	.	.	.	8ff#X\	-gnus	.	.	.	.	.	.	.	.
.	.	.	.	.	16d/JJ	.	16ff#X\|	.	.	.	.	.	.	.	.	.	.	.	.	.	.	.	.	.	.	.	.
*	*	*	*	*	*Xrep	*	*	*	*	*	*	*	*	*	*	*	*	*	*	*	*	*	*	*	*	*	*
=39	=39	=39	=39	=39	=39	=39	=39	=39	=39	=39	=39	=39	=39	=39	=39	=39	=39	=39	=39	=39	=39	=39	=39	=39	=39	=39	=39
*	*	*	*	*	*rep	*	*	*	*	*	*	*	*	*	*	*	*	*	*	*	*	*	*	*	*	*	*
!	!	!	!	!	!	!	!	!	!	!	!	!	!	!	!	!	!	!LO:TX:t=P:problem:takt zapisany repetycją	!	!	!	!	!	!	!	!	!
8G\L	.	.	8G/L	.	16B/LL	.	(16gg\LL	.	.	.	.	.	.	.	.	.	.	16gg\LLyy	A-	2dd\	.	2dd\	.	2dd\	.	2dd\	.
.	.	.	.	.	16d/	.	16dd\JJ)	.	.	.	.	.	.	.	.	.	.	16dd\JJyy	.	.	.	.	.	.	.	.	.
8A\	6\	.	8A/J	.	16c/	.	16r	.	.	.	.	.	.	.	.	.	.	4dd\yy	.	.	.	.	.	.	.	.	.
.	.	.	.	.	16d/JJ	.	16ff#X\|	.	.	.	.	.	.	.	.	.	.	.	.	.	.	.	.	.	.	.	.
*	*	*	*	*	*Xrep	*	*	*	*	*	*	*	*	*	*	*	*	*	*	*	*	*	*	*	*	*	*
*	*	*	*	*	*rep	*	*	*	*	*	*	*	*	*	*	*	*	*	*	*	*	*	*	*	*	*	*
8G\	.	.	8G/L	.	16B/LL	.	(16gg\LL	.	.	.	.	.	.	.	.	.	.	.	.	.	.	.	.	.	.	.	.
.	.	.	.	.	16d/	.	16dd\JJ)	.	.	.	.	.	.	.	.	.	.	.	.	.	.	.	.	.	.	.	.
8D\J	7 #	.	8A/J	.	16c/	.	16r	.	.	.	.	.	.	.	.	.	.	8ff#X\yy	-gnus	.	.	.	.	.	.	.	.
.	.	.	.	.	16d/JJ	.	16ff#X\	.	.	.	.	.	.	.	.	.	.	.	.	.	.	.	.	.	.	.	.
*	*	*	*	*	*Xrep	*	*	*	*	*	*	*	*	*	*	*	*	*	*	*	*	*	*	*	*	*	*
=40	=40	=40	=40	=40	=40	=40	=40	=40	=40	=40	=40	=40	=40	=40	=40	=40	=40	=40	=40	=40	=40	=40	=40	=40	=40	=40	=40
!LO:TX:a:t=P:problem:mixed beam	!	!	!LO:TX:a:t=P:problem:mixed beam	!	!	!	!	!	!	!	!	!	!	!	!	!	!	!	!	!	!	!	!	!	!	!	!
8G\L	.	.	8G/L	.	4B/	.	4gg\	.	.	.	.	.	.	.	.	.	.	4gg\	Fi-	4dd\	.	4dd\	.	4dd\	.	4dd\	.
8GG/J	.	.	8g\J	.	.	.	.	.	.	.	.	.	.	.	.	.	.	.	.	.	.	.	.	.	.	.	.
4r	.	.	4r	.	4r	.	32gg\LLL	.	.	.	.	.	.	.	.	.	.	32gg\LLL	-li-	4r	.	4r	.	4r	.	4r	.
.	.	.	.	.	.	.	32ff\	.	.	.	.	.	.	.	.	.	.	32ff\	.	.	.	.	.	.	.	.	.
.	.	.	.	.	.	.	32bb\	.	.	.	.	.	.	.	.	.	.	32bb\	.	.	.	.	.	.	.	.	.
.	.	.	.	.	.	.	32aa\JJJ	.	.	.	.	.	.	.	.	.	.	32aa\JJJ	.	.	.	.	.	.	.	.	.
.	.	.	.	.	.	.	32gg\LLL	.	.	.	.	.	.	.	.	.	.	32gg\LLL	-us	.	.	.	.	.	.	.	.
.	.	.	.	.	.	.	32ff\	.	.	.	.	.	.	.	.	.	.	32ff\	.	.	.	.	.	.	.	.	.
.	.	.	.	.	.	.	32ee\	.	.	.	.	.	.	.	.	.	.	32ee\	.	.	.	.	.	.	.	.	.
.	.	.	.	.	.	.	32dd\JJJ	.	.	.	.	.	.	.	.	.	.	32dd\JJJ	.	.	.	.	.	.	.	.	.
!	!	!	!	!	!LO:LB:g=original	!	!	!	!	!	!	!	!	!	!	!	!	!LO:LB:g=original	!	!	!	!	!	!	!	!	!
=41	=41	=41	=41	=41	=41	=41	=41	=41	=41	=41	=41	=41	=41	=41	=41	=41	=41	=41	=41	=41	=41	=41	=41	=41	=41	=41	=41
!LO:TX:a:t=P:problem:mixed beam	!	!	!	!	!	!	!	!	!	!	!	!	!	!	!	!	!	!	!	!	!	!	!	!	!	!	!
8B\L	6	.	8B\L	.	8g/L	.	32dd\LLL	.	1r	.	.	1r	.	.	1r	.	.	32dd\LLL	Pa-	1r	.	1r	.	1r	.	1r	.
.	.	.	.	.	.	.	32dd#X\	.	.	.	.	.	.	.	.	.	.	32dd#X\	.	.	.	.	.	.	.	.	.
.	.	.	.	.	.	.	32ee\	.	.	.	.	.	.	.	.	.	.	32ee\	.	.	.	.	.	.	.	.	.
.	.	.	.	.	.	.	32dd#\JJJ	.	.	.	.	.	.	.	.	.	.	32dd#\JJJ	.	.	.	.	.	.	.	.	.
8c\	3	.	8c\	.	32g/LL	.	(32ee\LLL	.	.	.	.	.	.	.	.	.	.	32ee\LLL	.	.	.	.	.	.	.	.	.
.	.	.	.	.	32e/	.	32cc\)	.	.	.	.	.	.	.	.	.	.	32cc\	.	.	.	.	.	.	.	.	.
.	.	.	.	.	32d/	.	(32b\	.	.	.	.	.	.	.	.	.	.	32b\	.	.	.	.	.	.	.	.	.
.	.	.	.	.	32c/JJJ	.	32a\JJJ)	.	.	.	.	.	.	.	.	.	.	32a\JJJ	.	.	.	.	.	.	.	.	.
8d\	4	.	8d\	.	8B/L	.	8g/L	.	.	.	.	.	.	.	.	.	.	8g/L	.	.	.	.	.	.	.	.	.
8D/J	#	.	8e\J	.	8A/J	.	8f#X/J	.	.	.	.	.	.	.	.	.	.	8f#X/J	.	.	.	.	.	.	.	.	.
=42	=42	=42	=42	=42	=42	=42	=42	=42	=42	=42	=42	=42	=42	=42	=42	=42	=42	=42	=42	=42	=42	=42	=42	=42	=42	=42	=42
!	!	!	!LO:TX:a:t=P:problem:mixed beam	!	!	!	!	!	!	!	!	!	!	!	!	!	!	!	!	!	!	!	!	!	!	!	!
8G\L	.	.	8G/L	.	8B/L	.	8g/L	.	.	.	.	.	.	.	.	.	.	4g\	-tris	.	.	.	.	.	.	.	.
8G\	.	.	8g\	.	8B/	.	8g/	.	.	.	.	.	.	.	.	.	.	.	.	.	.	.	.	.	.	.	.
8G\J	.	.	8G/J	.	8B/J	.	8g/J	.	.	.	.	.	.	.	.	.	.	4r	.	.	.	.	.	.	.	.	.
8r	.	.	8r	.	8r	.	8r	.	.	.	.	.	.	.	.	.	.	.	.	.	.	.	.	.	.	.	.
=43	=43	=43	=43	=43	=43	=43	=43	=43	=43	=43	=43	=43	=43	=43	=43	=43	=43	=43	=43	=43	=43	=43	=43	=43	=43	=43	=43
*	*	*	*	*	*^	*	*	*	*	*	*	*	*	*	*	*	*	*	*	*	*	*	*	*	*	*	*
*	*	*	*	*	*	*	*	*	*	*	*	*	*2\right	*	*	*2\right	*	*	*	*	*	*	*	*	*	*	*	*
!	!	!	!	!	!	!LO:N:vis=1	!	!	!	!	!	!LO:DY:a:rj:t=p.	!	!	!LO:DY:a:rj	!	!	!LO:DY:a:rj	!	!	!	!LO:DY:a	!	!LO:DY:a	!	!LO:DY:a:rj	!	!LO:DY:a:rj:t=p.
8GG/L	.	.	16d\KL	.	16g/KL	2G\	.	16b\KL	.	4.G\	ui	p	2B\	Qui	p	2g\	Qui	p	0r	.	2g/	p	2g/	p	2b\	p	2gg\	p
!	!	!LO:HP:t=cres	!	!	!	!	!	!	!	!	!	!	!	!	!	!	!	!	!	!	!	!	!	!	!	!	!	!
.	.	<	8d\	.	8g/	.	.	8b\	.	.	.	.	.	.	.	.	.	.	.	.	.	.	.	.	.	.	.	.
8D/J	.	.	.	.	.	.	.	.	.	.	.	.	.	.	.	.	.	.	.	.	.	.	.	.	.	.	.	.
.	.	.	8d\	.	8g/	.	.	8b\	.	.	.	.	.	.	.	.	.	.	.	.	.	.	.	.	.	.	.	.
8G\L	.	.	.	.	.	.	.	.	.	.	.	.	.	.	.	.	.	.	.	.	.	.	.	.	.	.	.	.
.	.	.	8d\	.	8g/	.	.	8b\	.	.	.	.	.	.	.	.	.	.	.	.	.	.	.	.	.	.	.	.
8F\J	.	.	.	.	.	.	.	.	.	8F#X\	tol-	.	.	.	.	.	.	.	.	.	.	.	.	.	.	.	.	.
.	.	.	16d\Jk	.	16g/Jk	.	.	16b\Jk	.	.	.	.	.	.	.	.	.	.	.	.	.	.	.	.	.	.	.	.
!	!	!	!LO:LB:g=original	!	!	!	!	!LO:LB:g=original	!	!	!	!	!	!	!	!	!	!	!	!	!	!	!	!	!	!	!	!
=44	=44	=44	=44	=44	=44	=44	=44	=44	=44	=44	=44	=44	=44	=44	=44	=44	=44	=44	=44	=44	=44	=44	=44	=44	=44	=44	=44	=44
!	!	!	!	!	!	!LO:N:vis=1	!	!	!	!	!	!	!	!	!	!	!	!	!	!	!	!	!	!	!	!	!	!
8E-X\L	6	.	16e-X\KL	.	16g/KL	2G\	.	16cc\KL	.	4E-X\	-lis	.	4c\	tol-	.	4g\	tol-	.	.	.	2g/	.	2g/	.	2cc\	.	2gg\	.
.	.	.	8e-\	.	8g/	.	.	8cc\	.	.	.	.	.	.	.	.	.	.	.	.	.	.	.	.	.	.	.	.
8G\	.	.	.	.	.	.	.	.	.	.	.	.	.	.	.	.	.	.	.	.	.	.	.	.	.	.	.	.
.	.	.	8e-\	.	8g/	.	.	8cc\	.	.	.	.	.	.	.	.	.	.	.	.	.	.	.	.	.	.	.	.
8E-\	.	.	.	.	.	.	.	.	.	8E-\	pec-	.	8c\	-lis	.	8g\	-lis	.	.	.	.	.	.	.	.	.	.	.
.	.	.	8e-\	.	8g/	.	.	8cc\	.	.	.	.	.	.	.	.	.	.	.	.	.	.	.	.	.	.	.	.
8C\J	.	.	.	.	.	.	.	.	.	8E-\	-ca-	.	8c\	pec-	.	8g\	pec-	.	.	.	.	.	.	.	.	.	.	.
.	.	.	16e-\Jk	.	16g/Jk	.	.	16cc\Jk	.	.	.	.	.	.	.	.	.	.	.	.	.	.	.	.	.	.	.	.
!LO:LB:g=original	!	!	!	!	!	!	!	!	!	!	!	!	!	!	!	!	!	!	!	!	!	!	!LO:LB:g=original	!	!	!	!	!
=45	=45	=45	=45	=45	=45	=45	=45	=45	=45	=45	=45	=45	=45	=45	=45	=45	=45	=45	=45	=45	=45	=45	=45	=45	=45	=45	=45	=45
!	!	!	!	!	!	!LO:N:vis=1	!	!	!	!	!	!	!	!	!	!	!	!	!	!	!	!	!	!	!	!	!	!
8BB/L	6	.	16Bn/KL	.	16g/KL	2G\	.	16dd\KL	.	4BB/	-ta	.	4d\	-ca-	.	4g\	-ca-	.	.	.	2g/	.	2g/	.	2dd\	.	2gg\	.
.	.	.	8B/	.	8g/	.	.	8dd\	.	.	.	.	.	.	.	.	.	.	.	.	.	.	.	.	.	.	.	.
8GG/	.	.	.	.	.	.	.	.	.	.	.	.	.	.	.	.	.	.	.	.	.	.	.	.	.	.	.	.
.	.	.	8B/	.	8g/	.	.	8dd\	.	.	.	.	.	.	.	.	.	.	.	.	.	.	.	.	.	.	.	.
8BB/	.	.	.	.	.	.	.	.	.	4BB/	mun-	.	4d\	-ta	.	4g\	-ta	.	.	.	.	.	.	.	.	.	.	.
.	.	.	8B/	.	8g/	.	.	8dd\	.	.	.	.	.	.	.	.	.	.	.	.	.	.	.	.	.	.	.	.
8GG/J	.	.	.	.	.	.	.	.	.	.	.	.	.	.	.	.	.	.	.	.	.	.	.	.	.	.	.	.
.	.	.	16B/Jk	.	16g/Jk	.	.	16dd\Jk	.	.	.	.	.	.	.	.	.	.	.	.	.	.	.	.	.	.	.	.
=46	=46	=46	=46	=46	=46	=46	=46	=46	=46	=46	=46	=46	=46	=46	=46	=46	=46	=46	=46	=46	=46	=46	=46	=46	=46	=46	=46	=46
!LO:TX:a:t=P:problem:mixed beam	!	!	!	!	!	!LO:N:vis=1	!	!	!	!	!	!	!	!	!	!	!	!	!	!	!	!	!	!	!	!	!	!
8C/L	6_	.	16c\KL	.	16g/KL	2G\	.	16ee-X\KL	.	4C/	-di	.	4e-X\	mun-	.	4g\	mun-	.	.	.	4c/	.	4g/	.	2ee-X\	.	2gg\	.
.	.	.	8c\	.	8g/	.	.	8ee-\	.	.	.	.	.	.	.	.	.	.	.	.	.	.	.	.	.	.	.	.
8G\	.	.	.	.	.	.	.	.	.	.	.	.	.	.	.	.	.	.	.	.	.	.	.	.	.	.	.	.
.	.	.	8c\	.	8g/	.	.	8ee-\	.	.	.	.	.	.	.	.	.	.	.	.	.	.	.	.	.	.	.	.
8c\	.	.	.	.	.	.	.	.	.	4c\	.	.	4e-\	-di	.	4g\	-di	.	.	.	4r	.	4r	.	.	.	.	.
.	.	.	8c\	.	8g/	.	.	8ee-\	.	.	.	.	.	.	.	.	.	.	.	.	.	.	.	.	.	.	.	.
8B-X\J	.	.	.	.	.	.	.	.	.	.	.	.	.	.	.	.	.	.	.	.	.	.	.	.	.	.	.	.
.	X	.	16c\Jk	.	16g/Jk	.	.	16ee-\Jk	.	.	.	.	.	.	.	.	.	.	.	.	.	.	.	.	.	.	.	.
*	*	*	*	*	*v	*v	*	*	*	*	*	*	*	*	*	*	*	*	*	*	*	*	*	*	*	*	*	*
=47	=47	=47	=47	=47	=47	=47	=47	=47	=47	=47	=47	=47	=47	=47	=47	=47	=47	=47	=47	=47	=47	=47	=47	=47	=47	=47	=47
*tremolo	*	*	*	*	*	*	*	*	*	*	*	*	*	*	*	*	*	*	*	*	*	*	*	*	*	*	*
*2\right	*	*	*	*	*	*	*	*	*	*	*	*	*	*	*	*	*	*	*	*	*	*	*	*	*	*	*
8A\L	6 -5	.	16c\KL	.	16fn/KL	.	16ee-X\KL	.	4A\	mi-	.	4e-X\	mi-	.	4f\	mi-	.	0r	.	0r	.	0r	.	2ff\	.	2eee-X\	.
.	.	.	8c\	.	8f/	.	8ee-\	.	.	.	.	.	.	.	.	.	.	.	.	.	.	.	.	.	.	.	.
8A\	.	.	.	.	.	.	.	.	.	.	.	.	.	.	.	.	.	.	.	.	.	.	.	.	.	.	.
.	.	.	8c\	.	8f/	.	8ee-\	.	.	.	.	.	.	.	.	.	.	.	.	.	.	.	.	.	.	.	.
8A\	.	.	.	.	.	.	.	.	4A\	-se-	.	4e-\	-se-	.	4f\	-se-	.	.	.	.	.	.	.	.	.	.	.
.	.	.	8c\	.	8f/	.	8ee-\	.	.	.	.	.	.	.	.	.	.	.	.	.	.	.	.	.	.	.	.
8A\J	.	.	.	.	.	.	.	.	.	.	.	.	.	.	.	.	.	.	.	.	.	.	.	.	.	.	.
.	.	.	16c\Jk	.	16f/Jk	.	16ee-\Jk	.	.	.	.	.	.	.	.	.	.	.	.	.	.	.	.	.	.	.	.
=48	=48	=48	=48	=48	=48	=48	=48	=48	=48	=48	=48	=48	=48	=48	=48	=48	=48	=48	=48	=48	=48	=48	=48	=48	=48	=48	=48
8B-X\L	.	.	16B-X/KL	.	16f/KL	.	16dd\KL	.	4B-X\	-re-	.	4d\	-re-	.	4f\	-re-	.	.	.	.	.	.	.	2gg\	.	2ddd\	.
.	.	.	8B-/	.	8f/	.	8dd\	.	.	.	.	.	.	.	.	.	.	.	.	.	.	.	.	.	.	.	.
8B-\	.	.	.	.	.	.	.	.	.	.	.	.	.	.	.	.	.	.	.	.	.	.	.	.	.	.	.
.	.	.	8B-/	.	8f/	.	8dd\	.	.	.	.	.	.	.	.	.	.	.	.	.	.	.	.	.	.	.	.
8B-\	.	.	.	.	.	.	.	.	4BB-y/	-re	.	4d\	-re	.	4f\	-re	.	.	.	.	.	.	.	.	.	.	.
.	.	.	8B-/	.	8f/	.	8dd\	.	.	.	.	.	.	.	.	.	.	.	.	.	.	.	.	.	.	.	.
8B-\J	.	.	.	.	.	.	.	.	.	.	.	.	.	.	.	.	.	.	.	.	.	.	.	.	.	.	.
.	.	.	16B-/Jk	.	16f/Jk	.	16dd\Jk	.	.	.	.	.	.	.	.	.	.	.	.	.	.	.	.	.	.	.	.
*Xtremolo	*	*	*	*	*	*	*	*	*	*	*	*	*	*	*	*	*	*	*	*	*	*	*	*	*	*	*
=49	=49	=49	=49	=49	=49	=49	=49	=49	=49	=49	=49	=49	=49	=49	=49	=49	=49	=49	=49	=49	=49	=49	=49	=49	=49	=49	=49
8E-X\L	6 5	.	8g\L	.	16b-X\KL	.	16cc\KL	.	4E-X\	no-	.	2c\	no-	.	(4b-X\	no-	.	.	.	.	.	.	.	4gg\	.	2ccc\	.
.	.	.	.	.	8b-\	.	8cc\	.	.	.	.	.	.	.	.	.	.	.	.	.	.	.	.	.	.	.	.
8E-\	.	.	8g\	.	.	.	.	.	.	.	.	.	.	.	.	.	.	.	.	.	.	.	.	.	.	.	.
.	.	.	.	.	8b-\	.	8cc\	.	.	.	.	.	.	.	.	.	.	.	.	.	.	.	.	.	.	.	.
8F\	.	.	8f\	.	.	.	.	.	4F\	.	.	.	.	.	4a\)	.	.	.	.	.	.	.	.	4aa\	.	.	.
.	.	.	.	.	8b-\	.	8cc\	.	.	.	.	.	.	.	.	.	.	.	.	.	.	.	.	.	.	.	.
8F\J	.	.	8f\J	.	.	.	.	.	.	.	.	.	.	.	.	.	.	.	.	.	.	.	.	.	.	.	.
.	.	.	.	.	16b-\Jk	.	16cc\Jk	.	.	.	.	.	.	.	.	.	.	.	.	.	.	.	.	.	.	.	.
!	!	!	!	!	!LO:LB:g=original	!	!	!	!LO:LB:g=original	!	!	!	!	!	!LO:LB:g=original	!	!	!	!	!	!	!	!	!	!	!	!
=50	=50	=50	=50	=50	=50	=50	=50	=50	=50	=50	=50	=50	=50	=50	=50	=50	=50	=50	=50	=50	=50	=50	=50	=50	=50	=50	=50
!LO:TX:a:t=P:problem:mixed beam	!	!	!	!	!	!	!	!	!	!	!	!	!	!	!	!	!	!	!	!	!	!	!	!	!	!	!
8BB-X/L	.	.	16f\KL	.	16b\KL	.	16dd\KL	.	4BB-X/	-bis	.	4d\	-bis	.	4b\	-bis	.	.	.	.	.	.	.	2bb-X\	.	2bb-X\	.
.	.	.	8f\	.	8dd\	.	8bb-X\	.	.	.	.	.	.	.	.	.	.	.	.	.	.	.	.	.	.	.	.
8B-y\	.	.	.	.	.	.	.	.	.	.	.	.	.	.	.	.	.	.	.	.	.	.	.	.	.	.	.
.	.	.	8f\	.	8dd\	.	8bb-\	.	.	.	.	.	.	.	.	.	.	.	.	.	.	.	.	.	.	.	.
8B-\	.	.	.	.	.	.	.	.	4B-y\	qui	.	4d\	qui	.	4f\	qui	.	.	.	.	.	.	.	.	.	.	.
.	.	.	8f\	.	8dd\	.	8bb-\	.	.	.	.	.	.	.	.	.	.	.	.	.	.	.	.	.	.	.	.
8B-\J	.	.	.	.	.	.	.	.	.	.	.	.	.	.	.	.	.	.	.	.	.	.	.	.	.	.	.
.	.	.	16f\Jk	.	16dd\Jk	.	16bb-\Jk	.	.	.	.	.	.	.	.	.	.	.	.	.	.	.	.	.	.	.	.
!	!	!	!	!	!	!	!	!	!	!	!	!LO:LB:g=original	!	!	!	!	!	!	!	!	!	!	!	!	!	!	!
=51	=51	=51	=51	=51	=51	=51	=51	=51	=51	=51	=51	=51	=51	=51	=51	=51	=51	=51	=51	=51	=51	=51	=51	=51	=51	=51	=51
*	*	*	*	*	*^	*	*	*	*	*	*	*	*	*	*	*	*	*	*	*	*	*	*	*	*	*	*
*tremolo	*	*	*	*	*	*	*	*	*	*	*	*	*	*	*	*	*	*	*	*	*	*	*	*	*	*	*	*
8F#X\L	6 5	.	16d\KL	.	16cc/KL	2d/	.	16aa\KL	.	4F#X\	tol-	.	4c\	tol-	.	4a\	tol-	.	0r	.	0r	.	0r	.	2cc\	.	2aa\	.
.	.	.	8d\	.	8cc/	.	.	8aa\	.	.	.	.	.	.	.	.	.	.	.	.	.	.	.	.	.	.	.	.
8F#\	.	.	.	.	.	.	.	.	.	.	.	.	.	.	.	.	.	.	.	.	.	.	.	.	.	.	.	.
.	.	.	8d\	.	8cc/	.	.	8aa\	.	.	.	.	.	.	.	.	.	.	.	.	.	.	.	.	.	.	.	.
8F#\	.	.	.	.	.	.	.	.	.	8F#\	-lis	.	8c\	-lis	.	8a\	-lis	.	.	.	.	.	.	.	.	.	.	.
.	.	.	8d\	.	8cc/	.	.	8aa\	.	.	.	.	.	.	.	.	.	.	.	.	.	.	.	.	.	.	.	.
8F#\J	.	.	.	.	.	.	.	.	.	8F#\	pec-	.	8c\	pec-	.	8a\	pec-	.	.	.	.	.	.	.	.	.	.	.
.	.	.	16d\Jk	.	16cc/Jk	.	.	16aa\Jk	.	.	.	.	.	.	.	.	.	.	.	.	.	.	.	.	.	.	.	.
*	*	*	*	*	*v	*v	*	*	*	*	*	*	*	*	*	*	*	*	*	*	*	*	*	*	*	*	*	*
=52	=52	=52	=52	=52	=52	=52	=52	=52	=52	=52	=52	=52	=52	=52	=52	=52	=52	=52	=52	=52	=52	=52	=52	=52	=52	=52	=52
8G-X\L	-	.	16d\KL	.	16b-X\KL	.	16gg\KL	.	4G\	-ca-	.	4B-X\	-ca-	.	4g\	-ca-	.	.	.	.	.	.	.	2b-X\	.	2gg\	.
.	.	.	8d\	.	8b-\	.	8gg\	.	.	.	.	.	.	.	.	.	.	.	.	.	.	.	.	.	.	.	.
8G-\	.	.	.	.	.	.	.	.	.	.	.	.	.	.	.	.	.	.	.	.	.	.	.	.	.	.	.
.	.	.	8d\	.	8b-\	.	8gg\	.	.	.	.	.	.	.	.	.	.	.	.	.	.	.	.	.	.	.	.
8G-\	.	.	.	.	.	.	.	.	4G\	-ta	.	4B-\	-ta	.	4g\	-ta	.	.	.	.	.	.	.	.	.	.	.
.	.	.	8d\	.	8b-\	.	8gg\	.	.	.	.	.	.	.	.	.	.	.	.	.	.	.	.	.	.	.	.
8G-\J	.	.	.	.	.	.	.	.	.	.	.	.	.	.	.	.	.	.	.	.	.	.	.	.	.	.	.
.	.	.	16d\Jk	.	16b-\Jk	.	16gg\Jk	.	.	.	.	.	.	.	.	.	.	.	.	.	.	.	.	.	.	.	.
=53	=53	=53	=53	=53	=53	=53	=53	=53	=53	=53	=53	=53	=53	=53	=53	=53	=53	=53	=53	=53	=53	=53	=53	=53	=53	=53	=53
!	!	!	!	!	!	!	!	!	!	!	!	!LO:SIC:v:s=2B-\	!	!	!	!	!	!	!	!	!	!	!	!	!	!	!
8C#X/L	-7n 3	.	8en\L	.	16b-X\KL	.	16gg\KL	.	2C#X/	mun-	.	2B\	mun-	.	2g\	mun-	.	.	.	.	.	.	.	2b\	.	2gg\	.
.	.	.	.	.	8b-\	.	8gg\	.	.	.	.	.	.	.	.	.	.	.	.	.	.	.	.	.	.	.	.
8C#/	.	.	8e\	.	.	.	.	.	.	.	.	.	.	.	.	.	.	.	.	.	.	.	.	.	.	.	.
.	.	.	.	.	8b-\	.	8gg\	.	.	.	.	.	.	.	.	.	.	.	.	.	.	.	.	.	.	.	.
8C#/	.	.	8e\	.	.	.	.	.	.	.	.	.	.	.	.	.	.	.	.	.	.	.	.	.	.	.	.
.	.	.	.	.	8b-\	.	8gg\	.	.	.	.	.	.	.	.	.	.	.	.	.	.	.	.	.	.	.	.
8C#/J	.	.	8e\J	.	.	.	.	.	.	.	.	.	.	.	.	.	.	.	.	.	.	.	.	.	.	.	.
.	.	.	.	.	16b-\Jk	.	16gg\Jk	.	.	.	.	.	.	.	.	.	.	.	.	.	.	.	.	.	.	.	.
*Xtremolo	*	*	*	*	*	*	*	*	*	*	*	*	*	*	*	*	*	*	*	*	*	*	*	*	*	*	*
!	!	!	!LO:LB:g=original	!	!	!	!	!	!	!	!	!	!	!	!	!	!	!	!	!	!	!	!	!	!	!	!
=54	=54	=54	=54	=54	=54	=54	=54	=54	=54	=54	=54	=54	=54	=54	=54	=54	=54	=54	=54	=54	=54	=54	=54	=54	=54	=54	=54
8D\L	.	.	8d\L	.	8a/L	.	8ff#X\L	.	4D\	-di	.	4A\	-di	.	4f#X\	-di	.	.	.	.	.	.	.	8a\L	.	8ff#X\L	.
8D\	.	.	8d\	.	8f#X/	.	8dd\	.	.	.	.	.	.	.	.	.	.	.	.	.	.	.	.	8dd\	.	8dd\	.
8D\J	.	.	8d\J	.	8f#/J	.	8dd\J	.	4r	.	.	4r	.	.	4r	.	.	.	.	.	.	.	.	8dd\J	.	8dd\J	.
16D\LL	.	.	8r	.	8r	.	8r	.	.	.	.	.	.	.	.	.	.	.	.	.	.	.	.	8r	.	8r	.
16C\JJ	.	.	.	.	.	.	.	.	.	.	.	.	.	.	.	.	.	.	.	.	.	.	.	.	.	.	.
=55	=55	=55	=55	=55	=55	=55	=55	=55	=55	=55	=55	=55	=55	=55	=55	=55	=55	=55	=55	=55	=55	=55	=55	=55	=55	=55	=55
8BB-X/	.	.	16r	.	16r	.	16r	.	1r	.	.	4r	.	.	4r	.	.	0r	.	0r	.	0r	.	1r	.	1r	.
.	.	.	16B-X/LL	.	16d/LL	.	16dd\LL|	.	.	.	.	.	.	.	.	.	.	.	.	.	.	.	.	.	.	.	.
8r	.	.	16B-/	.	16d/	.	16dd\|	.	.	.	.	.	.	.	.	.	.	.	.	.	.	.	.	.	.	.	.
.	.	.	16B-/JJ	.	16d/JJ	.	16dd\JJ|	.	.	.	.	.	.	.	.	.	.	.	.	.	.	.	.	.	.	.	.
!	!	!	!	!	!	!	!LO:LB:g=original	!	!	!	!	!	!	!	!	!	!	!	!	!	!	!	!	!	!	!	!
4r	.	.	16B-/LL	.	16d/LL	.	(16dd\LL	.	.	.	.	16B-X\LL	Sus-	.	16d\LL	Sus-	.	.	.	.	.	.	.	.	.	.	.
.	.	.	16c/	.	16e-X/	.	16ee-X\)	.	.	.	.	16c\JJ	.	.	16e-X\	.	.	.	.	.	.	.	.	.	.	.	.
.	.	.	16c/	.	16e-/	.	(16ee-\	.	.	.	.	16c\LL	-ci-	.	16e-\	-ci-	.	.	.	.	.	.	.	.	.	.	.
.	.	.	16d/JJ	.	16f/JJ	.	16ff\JJ)	.	.	.	.	16d\JJ	.	.	16f\JJ	.	.	.	.	.	.	.	.	.	.	.	.
=56	=56	=56	=56	=56	=56	=56	=56	=56	=56	=56	=56	=56	=56	=56	=56	=56	=56	=56	=56	=56	=56	=56	=56	=56	=56	=56	=56
!LO:TX:a:t=P:problem:mixed beam	!	!	!	!	!	!	!	!	!	!	!	!	!	!	!	!	!	!	!	!	!	!	!	!	!	!	!
8BB/L	.	.	4d\	.	4e-X/	.	4ff\	.	.	.	.	4d\	-pe	.	4f\	-pe	.	.	.	.	.	.	.	.	.	.	.
8B\J	.	.	.	.	.	.	.	.	.	.	.	.	.	.	.	.	.	.	.	.	.	.	.	.	.	.	.
4r	.	.	16e-X\LL	.	16g/LL	.	16gg\LL	.	.	.	.	16e-X\LL	de-	.	16g\LL	de-	.	.	.	.	.	.	.	.	.	.	.
.	.	.	16d\	.	16f/	.	16ff\	.	.	.	.	16d\JJ	.	.	16f\JJ	.	.	.	.	.	.	.	.	.	.	.	.
.	.	.	16c\	.	16e-X/	.	16ee\	.	.	.	.	16c\LL	-pre-	.	16e\LL	-pre-	.	.	.	.	.	.	.	.	.	.	.
.	.	.	16B\JJ	.	16d/JJ	.	16dd\JJ	.	.	.	.	16B\JJ	.	.	16d\JJ	.	.	.	.	.	.	.	.	.	.	.	.
=57	=57	=57	=57	=57	=57	=57	=57	=57	=57	=57	=57	=57	=57	=57	=57	=57	=57	=57	=57	=57	=57	=57	=57	=57	=57	=57	=57
*tremolo	*	*	*	*	*	*	*	*	*	*	*	*	*	*	*	*	*	*	*	*	*	*	*	*	*	*	*
8A\L	-5	.	16c\KL	.	16f/KL	.	16ee-X\KL	.	8F\	de-	.	4c\	-ca-	.	4e-X\	-ca-	.	.	.	.	.	.	.	2ccc\	.	2eee-X\	.
.	.	.	8c\	.	8f/	.	8ee-\	.	.	.	.	.	.	.	.	.	.	.	.	.	.	.	.	.	.	.	.
8A\	.	.	.	.	.	.	.	.	8F\	-pre-	.	.	.	.	.	.	.	.	.	.	.	.	.	.	.	.	.
.	.	.	8c\	.	8f/	.	8ee-\	.	.	.	.	.	.	.	.	.	.	.	.	.	.	.	.	.	.	.	.
8A\	.	.	.	.	.	.	.	.	8A\	-ca-	.	4c\	-ti-	.	4e-\	-ti-	.	.	.	.	.	.	.	.	.	.	.
.	.	.	8c\	.	8f/	.	8ee-\	.	.	.	.	.	.	.	.	.	.	.	.	.	.	.	.	.	.	.	.
8A\J	.	.	.	.	.	.	.	.	8A\	-ti-	.	.	.	.	.	.	.	.	.	.	.	.	.	.	.	.	.
.	.	.	16c\Jk	.	16f/Jk	.	16ee-\Jk	.	.	.	.	.	.	.	.	.	.	.	.	.	.	.	.	.	.	.	.
!LO:LB:g=original	!	!	!	!	!	!	!	!	!	!	!	!	!	!	!	!	!	!	!	!	!	!	!	!LO:LB:g=original	!	!	!
=58	=58	=58	=58	=58	=58	=58	=58	=58	=58	=58	=58	=58	=58	=58	=58	=58	=58	=58	=58	=58	=58	=58	=58	=58	=58	=58	=58
8B\L	.	.	16B-X/KL	.	16f/KL	.	16dd\KL	.	4B-X\	-o-	.	4B-X\	-o-	.	4d\	-o-	.	.	.	.	.	.	.	2bb-X\	.	2ddd\	.
.	.	.	8B-/	.	8f/	.	8dd\	.	.	.	.	.	.	.	.	.	.	.	.	.	.	.	.	.	.	.	.
8B\	.	.	.	.	.	.	.	.	.	.	.	.	.	.	.	.	.	.	.	.	.	.	.	.	.	.	.
.	.	.	8B-/	.	8f/	.	8dd\	.	.	.	.	.	.	.	.	.	.	.	.	.	.	.	.	.	.	.	.
8B\	.	.	.	.	.	.	.	.	4BB-y/	-nem	.	4B-\	-nem	.	4b-X\	-nem	.	.	.	.	.	.	.	.	.	.	.
.	.	.	8B-/	.	8f/	.	8dd\	.	.	.	.	.	.	.	.	.	.	.	.	.	.	.	.	.	.	.	.
8B\J	.	.	.	.	.	.	.	.	.	.	.	.	.	.	.	.	.	.	.	.	.	.	.	.	.	.	.
.	.	.	16B-/Jk	.	16f/Jk	.	16dd\Jk	.	.	.	.	.	.	.	.	.	.	.	.	.	.	.	.	.	.	.	.
*Xtremolo	*	*	*	*	*	*	*	*	*	*	*	*	*	*	*	*	*	*	*	*	*	*	*	*	*	*	*
!	!	!	!	!	!LO:LB:g=original	!	!	!	!	!	!	!LO:LB:g=original	!	!	!LO:LB:g=original	!	!	!	!	!	!	!	!	!	!	!LO:LB:g=original	!
=59	=59	=59	=59	=59	=59	=59	=59	=59	=59	=59	=59	=59	=59	=59	=59	=59	=59	=59	=59	=59	=59	=59	=59	=59	=59	=59	=59
!	!	!	!	!	!	!	!	!	!	!	!	!	!	!	!LO:SIC:v:s=8b-\	!	!	!	!	!	!	!	!	!LO:SIC:v:s=2bb-\	!	!	!
8E\L	6	.	16B-X/KL	.	16g/KL	.	16cc\KL	.	8E\	de-	.	8c\	de-	.	8b\	de-	.	0r	.	0r	.	0r	.	2bb\	.	2ccc\	.
.	5	.	8B-/	.	8g/	.	8cc\	.	.	.	.	.	.	.	.	.	.	.	.	.	.	.	.	.	.	.	.
!	!	!	!	!	!	!	!	!	!	!	!	!	!	!	!LO:SIC:v:s=8b-\	!	!	!	!	!	!	!	!	!	!	!	!
8E\	.	.	.	.	.	.	.	.	8E\	-pre-	.	8c\	-pre-	.	8b\	-pre-	.	.	.	.	.	.	.	.	.	.	.
.	.	.	8B-/	.	8g/	.	8cc\	.	.	.	.	.	.	.	.	.	.	.	.	.	.	.	.	.	.	.	.
!	!	!	!	!	!	!	!	!	!	!	!	!	!	!	!LO:SIC:v:s=8b-\	!	!	!	!	!	!	!	!	!	!	!	!
8En\	.	.	.	.	.	.	.	.	8En\	-ca-	.	8c\	-ca-	.	8b\	-ca-	.	.	.	.	.	.	.	.	.	.	.
.	.	.	8B-/	.	8g/	.	8cc\	.	.	.	.	.	.	.	.	.	.	.	.	.	.	.	.	.	.	.	.
!	!	!	!	!	!	!	!	!	!	!	!	!	!	!	!LO:SIC:v:s=8b-\	!	!	!	!	!	!	!	!	!	!	!	!
8E\J	.	.	.	.	.	.	.	.	8E\	-ti-	.	8c\	-ti-	.	8b\	-ti-	.	.	.	.	.	.	.	.	.	.	.
.	.	.	16B-/Jk	.	16g/Jk	.	16cc\Jk	.	.	.	.	.	.	.	.	.	.	.	.	.	.	.	.	.	.	.	.
!	!	!	!	!	!	!	!	!	!LO:LB:g=original	!	!	!	!	!	!	!	!	!	!	!	!	!	!	!	!	!	!
=60	=60	=60	=60	=60	=60	=60	=60	=60	=60	=60	=60	=60	=60	=60	=60	=60	=60	=60	=60	=60	=60	=60	=60	=60	=60	=60	=60
*tremolo	*	*	*	*	*	*	*	*	*	*	*	*	*	*	*	*	*	*	*	*	*	*	*	*	*	*	*
!	!	!	!	!	!	!	!	!	!	!	!	!	!	!	!	!	!	!	!	!	!	!	!	!LO:SIC:v:s=2bb-\	!	!	!
8F\L	6 -4	.	16f\KL	.	16b-X\KL	.	16dd\KL	.	4F\	-o-	.	4d\	-o-	.	4b-X\	-o-	.	.	.	.	.	.	.	2bb\	.	2ddd\	.
.	.	.	8f\	.	8b-\	.	8dd\	.	.	.	.	.	.	.	.	.	.	.	.	.	.	.	.	.	.	.	.
8F\	.	.	.	.	.	.	.	.	.	.	.	.	.	.	.	.	.	.	.	.	.	.	.	.	.	.	.
.	.	.	8f\	.	8b-\	.	8dd\	.	.	.	.	.	.	.	.	.	.	.	.	.	.	.	.	.	.	.	.
8F\	.	.	.	.	.	.	.	.	4F\	-nem	.	4d\	-nem	.	4b-\	-nem	.	.	.	.	.	.	.	.	.	.	.
.	.	.	8f\	.	8b-\	.	8dd\	.	.	.	.	.	.	.	.	.	.	.	.	.	.	.	.	.	.	.	.
8F\J	.	.	.	.	.	.	.	.	.	.	.	.	.	.	.	.	.	.	.	.	.	.	.	.	.	.	.
.	.	.	16f\Jk	.	16b-\Jk	.	16dd\Jk	.	.	.	.	.	.	.	.	.	.	.	.	.	.	.	.	.	.	.	.
=61	=61	=61	=61	=61	=61	=61	=61	=61	=61	=61	=61	=61	=61	=61	=61	=61	=61	=61	=61	=61	=61	=61	=61	=61	=61	=61	=61
*	*	*	*	*	*	*	*	*	*2\right	*	*	*	*	*	*	*	*	*	*	*	*	*	*	*	*	*	*
!	!	!	!	!	!LO:SIC:v:s=16b-\KL	!	!	!	!	!	!	!	!	!	!	!	!	!	!	!	!	!	!	!LO:SIC:v:s=4bb-\	!	!	!
8F\L	6 -4	.	16f\KL	.	16b\KL	.	16cc\KL	.	2F\	no-	.	2c\	no-	.	(4b-X\	no-	.	.	.	.	.	.	.	4bb\	.	2ccc\	.
!	!	!	!	!	!LO:SIC:v:s=8b-\	!	!	!	!	!	!	!	!	!	!	!	!	!	!	!	!	!	!	!	!	!	!
.	x 3	.	8f\	.	8b\	.	8cc\	.	.	.	.	.	.	.	.	.	.	.	.	.	.	.	.	.	.	.	.
8F\	.	.	.	.	.	.	.	.	.	.	.	.	.	.	.	.	.	.	.	.	.	.	.	.	.	.	.
!	!	!	!	!	!LO:SIC:v:s=16b-\Jk	!	!	!	!	!	!	!	!	!	!	!	!	!	!	!	!	!	!	!	!	!	!
.	.	.	8f\	.	16b\Jk	.	8cc\	.	.	.	.	.	.	.	.	.	.	.	.	.	.	.	.	.	.	.	.
8F\	.	.	.	.	16a/KL	.	.	.	.	.	.	.	.	.	4a\)	.	.	.	.	.	.	.	.	4aa\	.	.	.
.	.	.	8f\	.	8a/	.	8cc\	.	.	.	.	.	.	.	.	.	.	.	.	.	.	.	.	.	.	.	.
8F\J	.	.	.	.	.	.	.	.	.	.	.	.	.	.	.	.	.	.	.	.	.	.	.	.	.	.	.
.	.	.	16f\Jk	.	16a/Jk	.	16cc\Jk	.	.	.	.	.	.	.	.	.	.	.	.	.	.	.	.	.	.	.	.
*Xtremolo	*	*	*	*	*	*	*	*	*	*	*	*	*	*	*	*	*	*	*	*	*	*	*	*	*	*	*
=62	=62	=62	=62	=62	=62	=62	=62	=62	=62	=62	=62	=62	=62	=62	=62	=62	=62	=62	=62	=62	=62	=62	=62	=62	=62	=62	=62
!LO:TX:a:t=P:problem:mixed beam	!	!	!LO:TX:a:t=P:problem:mixed beam	!	!	!	!	!	!	!	!	!	!	!	!LO:SIC:v:s=4b-\	!	!	!	!	!	!	!	!	!	!	!	!
8BB-X/L	.	.	8B-X/L	.	4b-X\	.	4b-X\	.	4BB-X/	-stram	.	4d\	-str(am)	.	4b\	-stram	.	.	.	.	.	.	.	4bb-X\	.	4bb-X\	.
8B-X\	.	.	8b-X\	.	.	.	.	.	.	.	.	.	.	.	.	.	.	.	.	.	.	.	.	.	.	.	.
!	!	!	!	!	!LO:N:vis=8	!	!	!	!	!	!	!	!	!	!	!	!	!	!	!	!	!	!	!	!	!	!
8BB-/J	.	.	8B-/J	.	16r	.	8r	.	4r	.	.	8r	.	.	8r	.	.	.	.	.	.	.	.	4r	.	4r	.
.	.	.	.	.	16f/LL	.	.	.	.	.	.	.	.	.	.	.	.	.	.	.	.	.	.	.	.	.	.
8r	.	.	8r	.	16f/	.	16dd\LL	.	.	.	.	16d\LL	qui	.	16f\LL	qui	.	.	.	.	.	.	.	.	.	.	.
.	.	.	.	.	16e/JJ	.	16cc\JJ	.	.	.	.	16c\JJ	.	.	16e-X\JJ	.	.	.	.	.	.	.	.	.	.	.	.
!	!	!	!	!	!	!	!	!	!	!	!	!	!	!	!	!	!	!	!	!LO:LB:g=original	!	!	!	!	!	!	!
=63	=63	=63	=63	=63	=63	=63	=63	=63	=63	=63	=63	=63	=63	=63	=63	=63	=63	=63	=63	=63	=63	=63	=63	=63	=63	=63	=63
*tremolo	*	*	*tremolo	*	*	*	*	*	*	*	*	*	*	*	*	*	*	*	*	*	*	*	*	*	*	*	*
*	*	*	*2\right	*	*	*	*	*	*	*	*	*	*	*	*	*	*	*	*	*	*	*	*	*	*	*	*
!	!	!	!	!	!	!	!	!	!	!	!	!	!	!	!	!	!	!	!	!	!LO:DY:a:t=p.	!	!LO:DY:a	!	!	!	!
8F\L	n4 2	.	8g\L	.	16d/KL	.	16bn\KL	.	8r	.	.	4Bn\	se-	.	4d\	se-	.	0r	.	2g/	p	2g/	p	2dd\	.	2bbn\	.
.	.	.	.	.	8d/	.	8b\	.	.	.	.	.	.	.	.	.	.	.	.	.	.	.	.	.	.	.	.
8F\	.	.	8g\	.	.	.	.	.	8F\	Qui	.	.	.	.	.	.	.	.	.	.	.	.	.	.	.	.	.
.	.	.	.	.	8d/	.	8b\	.	.	.	.	.	.	.	.	.	.	.	.	.	.	.	.	.	.	.	.
8F\	.	.	8g\	.	.	.	.	.	8F\	se-	.	8B\	-des	.	8d\	-des	.	.	.	.	.	.	.	.	.	.	.
.	.	.	.	.	8d/	.	8b\	.	.	.	.	.	.	.	.	.	.	.	.	.	.	.	.	.	.	.	.
8F\J	.	.	8g\J	.	.	.	.	.	16F\	-des	.	8B\	ad	.	8g\	ad	.	.	.	.	.	.	.	.	.	.	.
.	.	.	.	.	16d/Jk	.	16b\Jk	.	16F\	ad	.	.	.	.	.	.	.	.	.	.	.	.	.	.	.	.	.
=64	=64	=64	=64	=64	=64	=64	=64	=64	=64	=64	=64	=64	=64	=64	=64	=64	=64	=64	=64	=64	=64	=64	=64	=64	=64	=64	=64
8E-X\L	6	.	8g\L	.	16g/KL	.	16cc\KL	.	4E-X\	dex-	.	4c\	dex-	.	4g\	dex-	.	.	.	2g/	.	2g/	.	2gg\	.	2ccc\	.
.	.	.	.	.	8g/	.	8cc\	.	.	.	.	.	.	.	.	.	.	.	.	.	.	.	.	.	.	.	.
8E-\	.	.	8g\	.	.	.	.	.	.	.	.	.	.	.	.	.	.	.	.	.	.	.	.	.	.	.	.
.	.	.	.	.	8g/	.	8cc\	.	.	.	.	.	.	.	.	.	.	.	.	.	.	.	.	.	.	.	.
8E-\	.	.	8g\	.	.	.	.	.	8E-\	-te-	.	8c\	-te-	.	8g\	-te-	.	.	.	.	.	.	.	.	.	.	.
.	.	.	.	.	8g/	.	8cc\	.	.	.	.	.	.	.	.	.	.	.	.	.	.	.	.	.	.	.	.
8E-\J	.	.	8g\J	.	.	.	.	.	8E-\	-ram	.	8c\	-ram	.	8g\	-ram	.	.	.	.	.	.	.	.	.	.	.
.	.	.	.	.	16g/Jk	.	16cc\Jk	.	.	.	.	.	.	.	.	.	.	.	.	.	.	.	.	.	.	.	.
!	!	!	!LO:LB:g=original	!	!	!	!	!	!	!	!	!	!	!	!	!	!	!	!	!	!	!	!	!	!	!	!
=65	=65	=65	=65	=65	=65	=65	=65	=65	=65	=65	=65	=65	=65	=65	=65	=65	=65	=65	=65	=65	=65	=65	=65	=65	=65	=65	=65
8BBn/L	6	.	8Bn/L	.	16g/KL	.	16dd\KL	.	4BBn/	Pa-	.	4d\	Pa-	.	4g\	Pa-	.	.	.	2g/	.	2g/	.	2gg\	.	2ddd\	.
.	.	.	.	.	8g/	.	8dd\	.	.	.	.	.	.	.	.	.	.	.	.	.	.	.	.	.	.	.	.
8BB/	.	.	8B/	.	.	.	.	.	.	.	.	.	.	.	.	.	.	.	.	.	.	.	.	.	.	.	.
.	.	.	.	.	8g/	.	8dd\	.	.	.	.	.	.	.	.	.	.	.	.	.	.	.	.	.	.	.	.
8BB/	.	.	8B/	.	.	.	.	.	4BB/	-tris	.	4d\	-tris	.	4g\	-tris	.	.	.	.	.	.	.	.	.	.	.
.	.	.	.	.	8g/	.	8dd\	.	.	.	.	.	.	.	.	.	.	.	.	.	.	.	.	.	.	.	.
8BB/J	.	.	8B/J	.	.	.	.	.	.	.	.	.	.	.	.	.	.	.	.	.	.	.	.	.	.	.	.
.	.	.	.	.	16g/Jk	.	16dd\Jk	.	.	.	.	.	.	.	.	.	.	.	.	.	.	.	.	.	.	.	.
=66	=66	=66	=66	=66	=66	=66	=66	=66	=66	=66	=66	=66	=66	=66	=66	=66	=66	=66	=66	=66	=66	=66	=66	=66	=66	=66	=66
8C/L	6	.	8c\L	.	16g/KL	.	16ee-X\KL	.	8C/	mi-	.	8e-X\	mi-	.	8g\	mi-	.	.	.	2g/	.	2g/	.	2gg\	.	2eee-X\	.
.	.	.	.	.	8g/	.	8ee-\	.	.	.	.	.	.	.	.	.	.	.	.	.	.	.	.	.	.	.	.
8C/	.	.	8c\	.	.	.	.	.	8C/	-se-	.	8e-\	-se-	.	8g\	-se-	.	.	.	.	.	.	.	.	.	.	.
.	.	.	.	.	8g/	.	8ee-\	.	.	.	.	.	.	.	.	.	.	.	.	.	.	.	.	.	.	.	.
!	!	!	!	!	!	!	!	!	!	!	!	!	!	!	!LO:LB:g=original	!	!	!	!	!	!	!	!	!	!	!	!
8C/	.	.	8c\	.	.	.	.	.	8C/	-re-	.	8e-\	-re-	.	8g\	-re-	.	.	.	.	.	.	.	.	.	.	.
.	.	.	.	.	8g/	.	8ee-\	.	.	.	.	.	.	.	.	.	.	.	.	.	.	.	.	.	.	.	.
8C/J	.	.	8c\J	.	.	.	.	.	8C/	-re	.	8e-\	-re	.	8g\	-re	.	.	.	.	.	.	.	.	.	.	.
.	.	.	.	.	16g/Jk	.	16ee-\Jk	.	.	.	.	.	.	.	.	.	.	.	.	.	.	.	.	.	.	.	.
*	*	*	*Xtremolo	*	*	*	*	*	*	*	*	*	*	*	*	*	*	*	*	*	*	*	*	*	*	*	*
!	!	!	!	!	!	!	!LO:LB:g=original	!	!	!	!	!LO:LB:g=original	!	!	!	!	!	!	!	!	!	!	!	!	!	!	!
=67	=67	=67	=67	=67	=67	=67	=67	=67	=67	=67	=67	=67	=67	=67	=67	=67	=67	=67	=67	=67	=67	=67	=67	=67	=67	=67	=67
8A-X\L	6\	.	8e-X\L	.	16cc\KL	.	16ff#X\KL	.	2A-X\	no-	.	2c\	no-	.	2f#X\	no-	.	0r	.	2r	.	2r	.	2ff#X\	.	2ccc\	.
.	.	.	.	.	8cc\	.	8ff#\	.	.	.	.	.	.	.	.	.	.	.	.	.	.	.	.	.	.	.	.
8A-\	.	.	8e-\	.	.	.	.	.	.	.	.	.	.	.	.	.	.	.	.	.	.	.	.	.	.	.	.
.	.	.	.	.	8cc\	.	8ff#\	.	.	.	.	.	.	.	.	.	.	.	.	.	.	.	.	.	.	.	.
8A-\	.	.	8e-\	.	.	.	.	.	.	.	.	.	.	.	.	.	.	.	.	.	.	.	.	.	.	.	.
.	.	.	.	.	8cc\	.	8ff#\	.	.	.	.	.	.	.	.	.	.	.	.	.	.	.	.	.	.	.	.
8A-\J	.	.	8c\J	.	.	.	.	.	.	.	.	.	.	.	.	.	.	.	.	.	.	.	.	.	.	.	.
.	.	.	.	.	16cc\Jk	.	16ff#\Jk	.	.	.	.	.	.	.	.	.	.	.	.	.	.	.	.	.	.	.	.
*Xtremolo	*	*	*	*	*	*	*	*	*	*	*	*	*	*	*	*	*	*	*	*	*	*	*	*	*	*	*
!	!	!	!	!	!LO:LB:g=original	!	!	!	!LO:LB:g=original	!	!	!	!	!	!	!	!	!	!	!	!	!	!	!	!	!	!
=68	=68	=68	=68	=68	=68	=68	=68	=68	=68	=68	=68	=68	=68	=68	=68	=68	=68	=68	=68	=68	=68	=68	=68	=68	=68	=68	=68
!	!	!	!	!	!LO:TX:a:t=P:problem:mixed beam	!	!	!	!	!	!	!	!	!	!	!	!	!	!	!	!	!	!	!	!	!	!
8G\	.	.	8d\	.	16bn\LL	.	8gg\L	.	8G\	-bis	.	8Bn\	-bis	.	8g\	-bis	.	.	.	2G/	.	2g/	.	8gg\	.	8bbn\	.
.	.	.	.	.	16G/	.	.	.	.	.	.	.	.	.	.	.	.	.	.	.	.	.	.	.	.	.	.
8r	.	.	8r	.	16B/	.	16gg\L	.	8r	.	.	8r	.	.	8r	.	.	.	.	.	.	.	.	8r	.	8r	.
.	.	.	.	.	16G/JJ	.	16gg\JJ	.	.	.	.	.	.	.	.	.	.	.	.	.	.	.	.	.	.	.	.
8GG/	1	.	8G/	.	16d/LL	.	16ffn\LL	.	8G\	mi-	.	16d\LL	mi-	.	16fn\LL	mi-	.	.	.	.	.	.	.	4r	.	4r	.
.	.	.	.	.	16Bn/	.	16dd\	.	.	.	.	16B\JJ	.	.	16d\JJ	.	.	.	.	.	.	.	.	.	.	.	.
8r	.	.	8r	.	16c/	.	16ee-X\	.	8G\	-se-	.	16c\LL	-se-	.	16e-X\LL	-se-	.	.	.	.	.	.	.	.	.	.	.
.	.	.	.	.	16e-X/JJ	.	16cc\JJ	.	.	.	.	16An\JJ	.	.	16c\JJ	.	.	.	.	.	.	.	.	.	.	.	.
=69	=69	=69	=69	=69	=69	=69	=69	=69	=69	=69	=69	=69	=69	=69	=69	=69	=69	=69	=69	=69	=69	=69	=69	=69	=69	=69	=69
8GG/	.	.	8G/	.	16G/LL	.	16bn\LL	.	8G\	-re-	.	8B\	-re-	.	8d\	-re-	.	.	.	2G/	.	2g/	.	2r	.	2r	.
.	.	.	.	.	16B/	.	16gg\	.	.	.	.	.	.	.	.	.	.	.	.	.	.	.	.	.	.	.	.
8r	.	.	8r	.	16d/	.	16gg\	.	16r	.	.	16r	.	.	16r	.	.	.	.	.	.	.	.	.	.	.	.
.	.	.	.	.	16B/JJ	.	16gg\JJ	.	16G\	-re	.	16e#X\	-re	.	16g\	-re	.	.	.	.	.	.	.	.	.	.	.
8GG/	.	.	8G/	.	16d/LL	.	16ff\LL	.	4G\	no-	.	16d\LL	no-	.	16f\LL	no-	.	.	.	.	.	.	.	.	.	.	.
.	.	.	.	.	16B/	.	16dd\	.	.	.	.	16Bn\	.	.	16d\	.	.	.	.	.	.	.	.	.	.	.	.
8r	.	.	8r	.	16c/	.	16ee-X\	.	.	.	.	16c\	.	.	16e-X\	.	.	.	.	.	.	.	.	.	.	.	.
.	.	.	.	.	16e-X/JJ	.	16cc\JJ	.	.	.	.	16A\JJ	.	.	16c\JJ	.	.	.	.	.	.	.	.	.	.	.	.
=70	=70	=70	=70	=70	=70	=70	=70	=70	=70	=70	=70	=70	=70	=70	=70	=70	=70	=70	=70	=70	=70	=70	=70	=70	=70	=70	=70
!	!	!	!	!	!	!	!LO:TX:a:t=P:problem:mixed beam	!	!	!	!	!	!	!	!	!	!	!	!	!	!	!	!	!	!	!	!
8GG/	.	.	8G/	.	(8d/	.	16bn\LL	.	8G\	-bis	.	8Gn/	-bis	.	8Bn/	-bis	.	.	.	4G/	.	4g/	.	4r	.	4r	.
.	.	.	.	.	.	.	16e/	.	.	.	.	.	.	.	.	.	.	.	.	.	.	.	.	.	.	.	.
8r	.	.	8r	.	8r	.	16e/	.	8r	.	.	8r	.	.	8r	.	.	.	.	.	.	.	.	.	.	.	.
.	.	.	.	.	.	.	16e/JJ	.	.	.	.	.	.	.	.	.	.	.	.	.	.	.	.	.	.	.	.
8GG/	.	.	16Bn\LL	.	8f/L)	.	4g/	.	4r	.	.	4r	.	.	4r	.	.	.	.	4r	.	4r	.	16bn\LL	.	16dd\LL	.
.	.	.	16d\	.	.	.	.	.	.	.	.	.	.	.	.	.	.	.	.	.	.	.	.	16cc\	.	16ff\	.
8r	.	.	16d\	.	16f/L|	.	.	.	.	.	.	.	.	.	.	.	.	.	.	.	.	.	.	16dd\	.	16ff\	.
.	.	.	16d\JJ	.	16f/JJ|	.	.	.	.	.	.	.	.	.	.	.	.	.	.	.	.	.	.	16ee\JJ	.	16ff\JJ	.
!LO:LB:g=original	!	!	!	!	!	!	!	!	!	!	!	!	!	!	!	!	!	!	!	!	!	!	!	!	!	!	!
=71	=71	=71	=71	=71	=71	=71	=71	=71	=71	=71	=71	=71	=71	=71	=71	=71	=71	=71	=71	=71	=71	=71	=71	=71	=71	=71	=71
8GG/	.	.	16c\LL	.	(16en/LL	.	2g/	.	0r	.	.	0r	.	.	0r	.	.	1r	.	1r	.	1r	.	16cc\LL	.	16een\LL	.
.	.	.	16en\	.	16g/)	.	.	.	.	.	.	.	.	.	.	.	.	.	.	.	.	.	.	16ee\	.	16gg\	.
8r	.	.	16e\	.	16g/|	.	.	.	.	.	.	.	.	.	.	.	.	.	.	.	.	.	.	16ee\	.	16gg\	.
.	.	.	16e\JJ	.	16g/JJ|	.	.	.	.	.	.	.	.	.	.	.	.	.	.	.	.	.	.	16ee\JJ	.	16gg\JJ	.
4r	.	.	16d\LL	.	(16f/LL	.	.	.	.	.	.	.	.	.	.	.	.	.	.	.	.	.	.	16dd\LL	.	16ff\LL	.
.	.	.	16B\J	.	16d/)	.	.	.	.	.	.	.	.	.	.	.	.	.	.	.	.	.	.	16b\J	.	16dd\	.
.	.	.	8c\J	.	(16e/	.	.	.	.	.	.	.	.	.	.	.	.	.	.	.	.	.	.	8cc\J	.	16ee\	.
.	.	.	.	.	16c/JJ)	.	.	.	.	.	.	.	.	.	.	.	.	.	.	.	.	.	.	.	.	16cc\JJ	.
!	!	!	!	!	!	!	!	!	!	!	!	!	!	!	!	!	!	!	!	!	!	!	!	!LO:LB:g=original	!	!	!
=72	=72	=72	=72	=72	=72	=72	=72	=72	=72	=72	=72	=72	=72	=72	=72	=72	=72	=72	=72	=72	=72	=72	=72	=72	=72	=72	=72
8GG/	.	.	16G/LL	.	(16d/LL	.	2g/	.	.	.	.	.	.	.	.	.	.	.	.	.	.	.	.	4b\	.	16dd\LL	.
.	.	.	16Bn/	.	16g/)	.	.	.	.	.	.	.	.	.	.	.	.	.	.	.	.	.	.	.	.	16gg\	.
8r	.	.	16B/	.	16g/|	.	.	.	.	.	.	.	.	.	.	.	.	.	.	.	.	.	.	.	.	16gg\	.
.	.	.	16B/JJ	.	16g/JJ|	.	.	.	.	.	.	.	.	.	.	.	.	.	.	.	.	.	.	.	.	16gg\JJ	.
!	!	!	!	!	!	!	!	!	!	!	!	!	!	!	!	!	!	!	!	!	!	!	!	!	!	!LO:LB:g=original	!
4r	.	.	8d\L	.	(16f/LL	.	.	.	.	.	.	.	.	.	.	.	.	.	.	.	.	.	.	16dd\LL	.	16ff\LL	.
.	.	.	.	.	16d/)	.	.	.	.	.	.	.	.	.	.	.	.	.	.	.	.	.	.	16b\	.	16dd\	.
.	.	.	16B\L	.	(16e/	.	.	.	.	.	.	.	.	.	.	.	.	.	.	.	.	.	.	16cc\	.	16ee\	.
.	.	.	16c\JJ	.	16c/JJ)	.	.	.	.	.	.	.	.	.	.	.	.	.	.	.	.	.	.	16a\JJ	.	16cc\JJ	.
=73	=73	=73	=73	=73	=73	=73	=73	=73	=73	=73	=73	=73	=73	=73	=73	=73	=73	=73	=73	=73	=73	=73	=73	=73	=73	=73	=73
!LO:TX:a:t=P:problem:mixed beam	!	!	!LO:TX:a:t=P:problem:mixed beam	!	!	!	!	!	!	!	!	!	!	!	!	!	!	!	!	!	!	!	!	!	!	!	!
8GG/L	.	.	8G/L	.	8d/L	.	8g/L	.	.	.	.	.	.	.	.	.	.	2r	.	8G/L	.	8g/L	.	8b\L	.	8dd\L	.
8G\	.	.	8g\	.	8B/	.	8g/	.	.	.	.	.	.	.	.	.	.	.	.	8G/	.	8g/	.	8b\	.	8gg\	.
8GG/J	.	.	8G/J	.	8B/J	.	8g/J	.	.	.	.	.	.	.	.	.	.	.	.	8G/J	.	8g/J	.	8b\J	.	8gg\J	.
8r	.	.	8r	.	8r	.	16cc\LL	.	.	.	.	.	.	.	.	.	.	.	.	8r	.	8r	.	8r	.	8r	.
.	.	.	.	.	.	.	16cc\JJ	.	.	.	.	.	.	.	.	.	.	.	.	.	.	.	.	.	.	.	.
=74	=74	=74	=74	=74	=74	=74	=74	=74	=74	=74	=74	=74	=74	=74	=74	=74	=74	=74	=74	=74	=74	=74	=74	=74	=74	=74	=74
8r	.	.	8r	.	8r	.	8.cc\L	.	.	.	.	.	.	.	.	.	.	8.cc\L	Quo-	0r	.	0r	.	0r	.	0r	.
8c\L	.	.	8c/L	.	8e/L	.	.	.	.	.	.	.	.	.	.	.	.	.	.	.	.	.	.	.	.	.	.
.	.	.	.	.	.	.	32dd\LL	.	.	.	.	.	.	.	.	.	.	32dd\LL	.	.	.	.	.	.	.	.	.
.	.	.	.	.	.	.	32ee\JJJ	.	.	.	.	.	.	.	.	.	.	32ee\JJJ	.	.	.	.	.	.	.	.	.
8A\	6	.	8A/	.	8f/	.	16ee\LL	.	.	.	.	.	.	.	.	.	.	16ee\LL	-ni-	.	.	.	.	.	.	.	.
.	.	.	.	.	.	.	16dd\	.	.	.	.	.	.	.	.	.	.	16dd\JJ	.	.	.	.	.	.	.	.	.
8F\J	6	.	8F/J	.	8a/J	.	16ff\	.	.	.	.	.	.	.	.	.	.	16ff\LL	-am	.	.	.	.	.	.	.	.
.	.	.	.	.	.	.	16dd\JJ	.	.	.	.	.	.	.	.	.	.	16dd\JJ	.	.	.	.	.	.	.	.	.
=75	=75	=75	=75	=75	=75	=75	=75	=75	=75	=75	=75	=75	=75	=75	=75	=75	=75	=75	=75	=75	=75	=75	=75	=75	=75	=75	=75
!LO:TX:a:t=P:problem:mixed beam	!	!	!LO:TX:a:t=P:problem:mixed beam	!	!	!	!	!	!	!	!	!	!	!	!	!	!	!	!	!	!	!	!	!	!	!	!
8G\L	.	.	8G/L	.	8r	.	16cc\LL	.	0r	.	.	0r	.	.	0r	.	.	16cc\LL	tu	.	.	.	.	.	.	.	.
.	.	.	.	.	.	.	16b\	.	.	.	.	.	.	.	.	.	.	16b\	.	.	.	.	.	.	.	.	.
8B\	6 3	.	8d\	.	8d/L	.	16aa\	.	.	.	.	.	.	.	.	.	.	16aa\	so-	.	.	.	.	.	.	.	.
.	.	.	.	.	.	.	16gg\JJ	.	.	.	.	.	.	.	.	.	.	16gg\JJ	.	.	.	.	.	.	.	.	.
8c\	.	.	8c\J	.	8f/	.	8gg\	.	.	.	.	.	.	.	.	.	.	8gg\	-lus	.	.	.	.	.	.	.	.
8C/J	.	.	8r	.	8e/J	.	16r	.	.	.	.	.	.	.	.	.	.	8r	.	.	.	.	.	.	.	.	.
.	.	.	.	.	.	.	16ccc\	.	.	.	.	.	.	.	.	.	.	.	.	.	.	.	.	.	.	.	.
!	!	!	!LO:LB:g=original	!	!LO:LB:g=original	!	!	!	!	!	!	!	!	!	!	!	!	!	!	!	!	!	!	!	!	!	!
=76	=76	=76	=76	=76	=76	=76	=76	=76	=76	=76	=76	=76	=76	=76	=76	=76	=76	=76	=76	=76	=76	=76	=76	=76	=76	=76	=76
8r	.	.	8r	.	8r	.	16gg\LL	.	.	.	.	.	.	.	.	.	.	16gg\LL	so-	.	.	.	.	.	.	.	.
.	.	.	.	.	.	.	16ee\	.	.	.	.	.	.	.	.	.	.	16ee\	.	.	.	.	.	.	.	.	.
!	!	!	!LO:TX:a:t=P:problem:mixed beam	!	!	!	!	!	!	!	!	!	!	!	!	!	!	!	!	!	!	!	!	!	!	!	!
8F\L	6	.	8f\L	.	8a/L	.	16ff\	.	.	.	.	.	.	.	.	.	.	16ff\	.	.	.	.	.	.	.	.	.
.	.	.	.	.	.	.	16dd\JJ	.	.	.	.	.	.	.	.	.	.	16dd\JJ	.	.	.	.	.	.	.	.	.
8G\	.	.	8g\	.	8d/	.	16cc\LL	.	.	.	.	.	.	.	.	.	.	16cc\LL	.	.	.	.	.	.	.	.	.
.	.	.	.	.	.	.	16b\	.	.	.	.	.	.	.	.	.	.	16b\	.	.	.	.	.	.	.	.	.
8B\J	6 3	.	8G/J	.	8d/J	.	16dd\	.	.	.	.	.	.	.	.	.	.	16dd\	-lus	.	.	.	.	.	.	.	.
.	.	.	.	.	.	.	16ff\JJ	.	.	.	.	.	.	.	.	.	.	16ff\JJ	.	.	.	.	.	.	.	.	.
=77	=77	=77	=77	=77	=77	=77	=77	=77	=77	=77	=77	=77	=77	=77	=77	=77	=77	=77	=77	=77	=77	=77	=77	=77	=77	=77	=77
!LO:TX:a:t=P:problem:mixed beam	!	!	!LO:TX:a:t=P:problem:mixed beam	!	!	!	!	!	!	!	!	!	!	!	!	!	!	!	!	!	!	!	!	!	!	!	!
8c\L	9	.	8G/L	.	8d/L	.	8ff\L	.	.	.	.	.	.	.	.	.	.	8ff\	San-	.	.	.	.	.	.	.	.
8C/	8_	.	8c\	.	8c/J	.	8ee\J	.	.	.	.	.	.	.	.	.	.	8ee\	-ctus	.	.	.	.	.	.	.	.
!	!	!	!	!	!	!	!LO:LB:g=original	!	!	!	!	!	!	!	!	!	!	!	!	!	!	!	!	!	!	!	!
8C/J	.	.	8C/J	.	4r	.	8r	.	.	.	.	.	.	.	.	.	.	8r	.	.	.	.	.	.	.	.	.
8r	X	.	8r	.	.	.	16g/LL	.	.	.	.	.	.	.	.	.	.	8g\	tu	.	.	.	.	.	.	.	.
.	.	.	.	.	.	.	16g/JJ	.	.	.	.	.	.	.	.	.	.	.	.	.	.	.	.	.	.	.	.
!	!	!	!	!	!	!	!	!	!	!	!	!	!	!	!	!	!	!LO:LB:g=original	!	!	!	!	!	!	!	!	!
=78	=78	=78	=78	=78	=78	=78	=78	=78	=78	=78	=78	=78	=78	=78	=78	=78	=78	=78	=78	=78	=78	=78	=78	=78	=78	=78	=78
!	!	!	!	!	!	!	!LO:TX:a:t=P:problem:mixed beam	!	!	!	!	!	!	!	!	!	!	!	!	!	!	!	!	!	!	!	!
8C/	.	.	16e\LL	.	16G/LL	.	8.g/L	.	.	.	.	.	.	.	.	.	.	8.g\	so-	0r	.	0r	.	0r	.	0r	.
.	.	.	16c\	.	16e/	.	.	.	.	.	.	.	.	.	.	.	.	.	.	.	.	.	.	.	.	.	.
8r	.	.	16e\	.	16G/	.	.	.	.	.	.	.	.	.	.	.	.	.	.	.	.	.	.	.	.	.	.
.	.	.	16c\JJ	.	16e/JJ	.	16ee\Jk	.	.	.	.	.	.	.	.	.	.	16ee\	-lus	.	.	.	.	.	.	.	.
8GG/	7	.	16d\LL	.	16G/LL	.	16ff\LL	.	.	.	.	.	.	.	.	.	.	16ff\LL	Do-	.	.	.	.	.	.	.	.
.	.	.	16B\	.	16f/	.	16dd\	.	.	.	.	.	.	.	.	.	.	16dd\JJ	.	.	.	.	.	.	.	.	.
8r	.	.	16d\	.	16G/	.	16cc\	.	.	.	.	.	.	.	.	.	.	16cc\LL	-mi-	.	.	.	.	.	.	.	.
.	.	.	16B\JJ	.	16f/JJ	.	16b\JJ	.	.	.	.	.	.	.	.	.	.	16b\JJ	.	.	.	.	.	.	.	.	.
=79	=79	=79	=79	=79	=79	=79	=79	=79	=79	=79	=79	=79	=79	=79	=79	=79	=79	=79	=79	=79	=79	=79	=79	=79	=79	=79	=79
8C/	.	.	16e\LL	.	16G/LL	.	16cc\LL	.	0r	.	.	0r	.	.	0r	.	.	8cc\	-nus	.	.	.	.	.	.	.	.
.	.	.	16c\	.	16e/	.	16g\	.	.	.	.	.	.	.	.	.	.	.	.	.	.	.	.	.	.	.	.
8r	.	.	16e\	.	16G/	.	16g\	.	.	.	.	.	.	.	.	.	.	16r	.	.	.	.	.	.	.	.	.
.	.	.	16c\JJ	.	16e/JJ	.	16g\JJ	.	.	.	.	.	.	.	.	.	.	16ee\	tu	.	.	.	.	.	.	.	.
8GG/	7	.	16d\LL	.	16G/LL	.	16ff\LL	.	.	.	.	.	.	.	.	.	.	16ff\LL	so-	.	.	.	.	.	.	.	.
.	.	.	16B\	.	16f/	.	16dd\	.	.	.	.	.	.	.	.	.	.	16dd\	.	.	.	.	.	.	.	.	.
8r	.	.	16d\	.	16G/	.	16cc\	.	.	.	.	.	.	.	.	.	.	16cc\	.	.	.	.	.	.	.	.	.
.	.	.	16B\JJ	.	16f/JJ	.	16b\JJ	.	.	.	.	.	.	.	.	.	.	16b\JJ	.	.	.	.	.	.	.	.	.
=80	=80	=80	=80	=80	=80	=80	=80	=80	=80	=80	=80	=80	=80	=80	=80	=80	=80	=80	=80	=80	=80	=80	=80	=80	=80	=80	=80
!	!	!	!	!	!LO:TX:a:t=P:problem:mixed beam	!	!	!	!	!	!	!	!	!	!	!	!	!	!	!	!	!	!	!	!	!	!
8C\L	.	.	8c\L	.	8e/L	.	16cc\LL|	.	.	.	.	.	.	.	.	.	.	4cc\	-lus	.	.	.	.	.	.	.	.
.	.	.	.	.	.	.	16gg\|	.	.	.	.	.	.	.	.	.	.	.	.	.	.	.	.	.	.	.	.
8C\	.	.	8c\	.	8e/	.	(16aa\	.	.	.	.	.	.	.	.	.	.	.	.	.	.	.	.	.	.	.	.
.	.	.	.	.	.	.	16gg\JJ)	.	.	.	.	.	.	.	.	.	.	.	.	.	.	.	.	.	.	.	.
8E\	6	.	8e\	.	8cc\	.	(16gg\LL	.	.	.	.	.	.	.	.	.	.	8r	.	.	.	.	.	.	.	.	.
.	.	.	.	.	.	.	16ccc\)	.	.	.	.	.	.	.	.	.	.	.	.	.	.	.	.	.	.	.	.
8E\J	.	.	8e\J	.	8cc\J	.	16gg\|	.	.	.	.	.	.	.	.	.	.	16r	.	.	.	.	.	.	.	.	.
.	.	.	.	.	.	.	16gg\JJ|	.	.	.	.	.	.	.	.	.	.	16gg\	tu	.	.	.	.	.	.	.	.
=81	=81	=81	=81	=81	=81	=81	=81	=81	=81	=81	=81	=81	=81	=81	=81	=81	=81	=81	=81	=81	=81	=81	=81	=81	=81	=81	=81
!LO:TX:a:t=P:problem:mixed beam	!	!	!	!	!	!	!	!	!	!	!	!	!	!	!	!	!	!	!	!	!	!	!	!	!	!	!
.	.	.	.	.	.	.	16qqgg#X/	.	.	.	.	.	.	.	.	.	.	8qqgg#X/	.	.	.	.	.	.	.	.	.
8F\L	3	.	4f\	.	4cc\	.	4aa\	.	.	.	.	.	.	.	.	.	.	4aa\	so-	.	.	.	.	.	.	.	.
8FF/J	.	.	.	.	.	.	.	.	.	.	.	.	.	.	.	.	.	.	.	.	.	.	.	.	.	.	.
4r	.	.	4r	.	4r	.	16ggn\LL	.	.	.	.	.	.	.	.	.	.	16ggn\LL	-lus	.	.	.	.	.	.	.	.
.	.	.	.	.	.	.	16ff\	.	.	.	.	.	.	.	.	.	.	16ff\JJ	.	.	.	.	.	.	.	.	.
.	.	.	.	.	.	.	16ee\	.	.	.	.	.	.	.	.	.	.	16ee\LL	al-	.	.	.	.	.	.	.	.
.	.	.	.	.	.	.	16dd\JJ	.	.	.	.	.	.	.	.	.	.	16dd\JJ	.	.	.	.	.	.	.	.	.
!LO:LB:g=original	!	!	!	!	!	!	!	!	!	!	!	!	!	!	!	!	!	!	!	!	!	!	!	!	!	!	!
=82	=82	=82	=82	=82	=82	=82	=82	=82	=82	=82	=82	=82	=82	=82	=82	=82	=82	=82	=82	=82	=82	=82	=82	=82	=82	=82	=82
8r	.	.	8r	.	8r	.	(16cc#X\LL	.	.	.	.	.	.	.	.	.	.	4.dd\	-tiſ-	0r	.	0r	.	0r	.	0r	.
.	.	.	.	.	.	.	16dd\)	.	.	.	.	.	.	.	.	.	.	.	.	.	.	.	.	.	.	.	.
8F\L	6	.	8f\L	.	8a/L	.	16dd'\	.	.	.	.	.	.	.	.	.	.	.	.	.	.	.	.	.	.	.	.
.	.	.	.	.	.	.	16dd'\JJ	.	.	.	.	.	.	.	.	.	.	.	.	.	.	.	.	.	.	.	.
8F#X\	5	.	8d\	.	8a/	.	(16dd\LL	.	.	.	.	.	.	.	.	.	.	.	.	.	.	.	.	.	.	.	.
.	.	.	.	.	.	.	16ccn\)	.	.	.	.	.	.	.	.	.	.	.	.	.	.	.	.	.	.	.	.
8F#\J	.	.	8d\J	.	8a/J	.	16cc'\	.	.	.	.	.	.	.	.	.	.	8ccn\	-si-	.	.	.	.	.	.	.	.
.	.	.	.	.	.	.	16cc'\JJ	.	.	.	.	.	.	.	.	.	.	.	.	.	.	.	.	.	.	.	.
=83	=83	=83	=83	=83	=83	=83	=83	=83	=83	=83	=83	=83	=83	=83	=83	=83	=83	=83	=83	=83	=83	=83	=83	=83	=83	=83	=83
!LO:TX:a:t=P:problem:mixed beam	!	!	!	!	!	!	!LO:TX:a:t=P:problem:mixed beam	!	!	!	!	!	!	!	!	!	!	!	!	!	!	!	!	!	!	!	!
8G\L	.	.	8d\L	.	8d/L	.	8b\L	.	0r	.	.	0r	.	.	0r	.	.	8b\	-mus	.	.	.	.	.	.	.	.
8GG/J	.	.	8g\J	.	8B/	.	8gg\	.	.	.	.	.	.	.	.	.	.	8r	.	.	.	.	.	.	.	.	.
16G\LL|	.	.	16g\LL	.	8B/J	.	8g/J	.	.	.	.	.	.	.	.	.	.	4r	.	.	.	.	.	.	.	.	.
16F\|	.	.	16f\	.	.	.	.	.	.	.	.	.	.	.	.	.	.	.	.	.	.	.	.	.	.	.	.
16E\|	.	.	16e\	.	8r	.	8r	.	.	.	.	.	.	.	.	.	.	.	.	.	.	.	.	.	.	.	.
16D\JJ|	.	.	16d\JJ	.	.	.	.	.	.	.	.	.	.	.	.	.	.	.	.	.	.	.	.	.	.	.	.
=84	=84	=84	=84	=84	=84	=84	=84	=84	=84	=84	=84	=84	=84	=84	=84	=84	=84	=84	=84	=84	=84	=84	=84	=84	=84	=84	=84
8C/	.	.	8c\	.	16c/LL	.	16ee\LL	.	.	.	.	.	.	.	.	.	.	16ee\LL	Je-	.	.	.	.	.	.	.	.
.	.	.	.	.	16d/	.	16ff\	.	.	.	.	.	.	.	.	.	.	16ff\	.	.	.	.	.	.	.	.	.
8r	.	.	8r	.	16e/	.	16gg\	.	.	.	.	.	.	.	.	.	.	16gg\	.	.	.	.	.	.	.	.	.
.	.	.	.	.	16f/JJ	.	16aa\JJ	.	.	.	.	.	.	.	.	.	.	16aa\JJ	.	.	.	.	.	.	.	.	.
8c\L	3	.	8c\L	.	8e/L	.	8gg\L	.	.	.	.	.	.	.	.	.	.	8gg\	-su	.	.	.	.	.	.	.	.
8e\J	6	.	8e\J	.	8g/J	.	16r	.	.	.	.	.	.	.	.	.	.	16r	.	.	.	.	.	.	.	.	.
*	*	*	*	*	*	*	*	*	*	*	*	*	*	*	*	*	*	*	*ij	*	*	*	*	*	*	*	*
.	.	.	.	.	.	.	16ccc\Jk	.	.	.	.	.	.	.	.	.	.	16cc\	Je-	.	.	.	.	.	.	.	.
=85	=85	=85	=85	=85	=85	=85	=85	=85	=85	=85	=85	=85	=85	=85	=85	=85	=85	=85	=85	=85	=85	=85	=85	=85	=85	=85	=85
8d\L	7	.	8d\L	.	8f/L	.	(16ccc\LL	.	.	.	.	.	.	.	.	.	.	16cc\LL	-su	.	.	.	.	.	.	.	.
.	6	.	.	.	.	.	16bb\JJ)	.	.	.	.	.	.	.	.	.	.	16b\JJ	.	.	.	.	.	.	.	.	.
8c\	6	.	8c\	.	8e/	.	16r	.	.	.	.	.	.	.	.	.	.	16r	.	.	.	.	.	.	.	.	.
!	!	!	!	!	!	!	!	!	!	!	!	!	!	!	!	!	!	!LO:LB:g=original	!	!	!	!	!	!	!	!	!
.	.	.	.	.	.	.	16aa\|	.	.	.	.	.	.	.	.	.	.	16a\	Je-	.	.	.	.	.	.	.	.
8B\	6	.	8B\	.	8d/	.	(16aa\LL	.	.	.	.	.	.	.	.	.	.	16a\LL	-su	.	.	.	.	.	.	.	.
*	*	*	*	*	*	*	*	*	*	*	*	*	*	*	*	*	*	*	*Xij	*	*	*	*	*	*	*	*
.	.	.	.	.	.	.	16gg\JJ)	.	.	.	.	.	.	.	.	.	.	16g\JJ	.	.	.	.	.	.	.	.	.
8G\J	7	.	8G\J	.	8B/J	.	16r	.	.	.	.	.	.	.	.	.	.	16r	.	.	.	.	.	.	.	.	.
.	.	.	.	.	.	.	16ff\	.	.	.	.	.	.	.	.	.	.	16ff\	Je-	.	.	.	.	.	.	.	.
!	!	!	!	!	!	!	!LO:LB:g=original	!	!	!	!	!	!	!	!	!	!	!	!	!	!	!	!	!	!	!	!
=86	=86	=86	=86	=86	=86	=86	=86	=86	=86	=86	=86	=86	=86	=86	=86	=86	=86	=86	=86	=86	=86	=86	=86	=86	=86	=86	=86
8c\	.	.	8c\	.	16c/LL	.	16ee\LL	.	.	.	.	.	.	.	.	.	.	16ee\LL	.	0r	.	0r	.	0r	.	0r	.
.	.	.	.	.	16d/	.	16ff\	.	.	.	.	.	.	.	.	.	.	16ff\	.	.	.	.	.	.	.	.	.
8r	.	.	8r	.	16e/	.	16gg\	.	.	.	.	.	.	.	.	.	.	16gg\	.	.	.	.	.	.	.	.	.
.	.	.	.	.	16f/JJ	.	16aa\JJ	.	.	.	.	.	.	.	.	.	.	16aa\JJ	.	.	.	.	.	.	.	.	.
8c\L	.	.	8c\L	.	8e/L	.	8gg\L	.	.	.	.	.	.	.	.	.	.	8gg\	-su	.	.	.	.	.	.	.	.
8e\J	6	.	8e\J	.	8g/J	.	16r	.	.	.	.	.	.	.	.	.	.	16r	.	.	.	.	.	.	.	.	.
*	*	*	*	*	*	*	*	*	*	*	*	*	*	*	*	*	*	*	*ij	*	*	*	*	*	*	*	*
.	.	.	.	.	.	.	16ccc\Jk	.	.	.	.	.	.	.	.	.	.	16cc\	Je-	.	.	.	.	.	.	.	.
!	!	!	!LO:LB:g=original	!	!LO:PB:g=original	!	!	!	!	!	!	!	!	!	!	!	!	!	!	!	!	!	!	!	!	!	!
=87	=87	=87	=87	=87	=87	=87	=87	=87	=87	=87	=87	=87	=87	=87	=87	=87	=87	=87	=87	=87	=87	=87	=87	=87	=87	=87	=87
8d\L	6	.	8d\L	.	8f/L	.	16ccc\LL	.	0r	.	.	0r	.	.	0r	.	.	16cc\LL	-su	.	.	.	.	.	.	.	.
.	.	.	.	.	.	.	16bb\JJ	.	.	.	.	.	.	.	.	.	.	16b\JJ	.	.	.	.	.	.	.	.	.
8c\	6	.	8c\J	.	8e/	.	16r	.	.	.	.	.	.	.	.	.	.	16r	.	.	.	.	.	.	.	.	.
.	.	.	.	.	.	.	16aa\	.	.	.	.	.	.	.	.	.	.	16a\	Je-	.	.	.	.	.	.	.	.
8B\	6	.	8B/L	.	8d/	.	16aa\LL	.	.	.	.	.	.	.	.	.	.	16a\LL	-su	.	.	.	.	.	.	.	.
*	*	*	*	*	*	*	*	*	*	*	*	*	*	*	*	*	*	*	*Xij	*	*	*	*	*	*	*	*
.	.	.	.	.	.	.	16gg\JJ	.	.	.	.	.	.	.	.	.	.	16g\JJ	.	.	.	.	.	.	.	.	.
8G\J	7	.	8G/J	.	8B/J	.	16r	.	.	.	.	.	.	.	.	.	.	16r	.	.	.	.	.	.	.	.	.
.	.	.	.	.	.	.	16ff\	.	.	.	.	.	.	.	.	.	.	16ff\	Chri-	.	.	.	.	.	.	.	.
=88	=88	=88	=88	=88	=88	=88	=88	=88	=88	=88	=88	=88	=88	=88	=88	=88	=88	=88	=88	=88	=88	=88	=88	=88	=88	=88	=88
8c\	.	.	8c\	.	16c/LL	.	16ee\LL	.	.	.	.	.	.	.	.	.	.	16ee\LL	.	.	.	.	.	.	.	.	.
.	.	.	.	.	16d/	.	16ff\	.	.	.	.	.	.	.	.	.	.	16ff\	.	.	.	.	.	.	.	.	.
8r	.	.	8r	.	16e/	.	16gg\	.	.	.	.	.	.	.	.	.	.	16gg\	.	.	.	.	.	.	.	.	.
.	.	.	.	.	16f/JJ	.	16aa\JJ	.	.	.	.	.	.	.	.	.	.	16aa\JJ	.	.	.	.	.	.	.	.	.
8C/	.	.	8c\	.	8e/	.	8gg\L	.	.	.	.	.	.	.	.	.	.	8gg\	-ste	.	.	.	.	.	.	.	.
8r	.	.	8r	.	8r	.	32ff\LL	.	.	.	.	.	.	.	.	.	.	8r	.	.	.	.	.	.	.	.	.
.	.	.	.	.	.	.	32ee\	.	.	.	.	.	.	.	.	.	.	.	.	.	.	.	.	.	.	.	.
.	.	.	.	.	.	.	32dd\	.	.	.	.	.	.	.	.	.	.	.	.	.	.	.	.	.	.	.	.
.	.	.	.	.	.	.	32cc\JJJ	.	.	.	.	.	.	.	.	.	.	.	.	.	.	.	.	.	.	.	.
=89	=89	=89	=89	=89	=89	=89	=89	=89	=89	=89	=89	=89	=89	=89	=89	=89	=89	=89	=89	=89	=89	=89	=89	=89	=89	=89	=89
8r	.	.	8r	.	8r	.	8r	.	.	.	.	.	.	.	.	.	.	4a\	Je-	.	.	.	.	.	.	.	.
!	!	!	!	!	!	!	!LO:TX:a:t=P:problem:mixed beam	!	!	!	!	!	!	!	!	!	!	!	!	!	!	!	!	!	!	!	!
8F\L	.	.	8f\L	.	8cc\L	.	8a/L	.	.	.	.	.	.	.	.	.	.	.	.	.	.	.	.	.	.	.	.
8F\	.	.	8f\	.	8cc\	.	8aa\	.	.	.	.	.	.	.	.	.	.	16a\LL	.	.	.	.	.	.	.	.	.
.	.	.	.	.	.	.	.	.	.	.	.	.	.	.	.	.	.	32g\L	.	.	.	.	.	.	.	.	.
.	.	.	.	.	.	.	.	.	.	.	.	.	.	.	.	.	.	32a\JJJ	.	.	.	.	.	.	.	.	.
8F\J	.	.	8f\J	.	8cc\J	.	8aa\J	.	.	.	.	.	.	.	.	.	.	32b\LLL	.	.	.	.	.	.	.	.	.
.	.	.	.	.	.	.	.	.	.	.	.	.	.	.	.	.	.	32a\	.	.	.	.	.	.	.	.	.
.	.	.	.	.	.	.	.	.	.	.	.	.	.	.	.	.	.	32g#X\	.	.	.	.	.	.	.	.	.
.	.	.	.	.	.	.	.	.	.	.	.	.	.	.	.	.	.	32a\JJJ	.	.	.	.	.	.	.	.	.
=90	=90	=90	=90	=90	=90	=90	=90	=90	=90	=90	=90	=90	=90	=90	=90	=90	=90	=90	=90	=90	=90	=90	=90	=90	=90	=90	=90
8r	.	.	8r	.	8r	.	8r	.	.	.	.	.	.	.	.	.	.	4b\	.	2r	.	2r	.	2r	.	2r	.
8F\L	4 2	.	8g\L	.	8d/L	.	8bb\L	.	.	.	.	.	.	.	.	.	.	.	.	.	.	.	.	.	.	.	.
.	.	.	.	.	.	.	.	.	.	.	.	.	.	.	.	.	.	8qqcc/	.	.	.	.	.	.	.	.	.
8F\	.	.	8g\	.	8d/	.	8bb\	.	.	.	.	.	.	.	.	.	.	16b\LL	.	.	.	.	.	.	.	.	.
.	.	.	.	.	.	.	.	.	.	.	.	.	.	.	.	.	.	32a\L	.	.	.	.	.	.	.	.	.
.	.	.	.	.	.	.	.	.	.	.	.	.	.	.	.	.	.	32b\JJJ	.	.	.	.	.	.	.	.	.
8D\J	6	.	8g\J	.	8f/J	.	8bb\J	.	.	.	.	.	.	.	.	.	.	32cc\LLL	.	.	.	.	.	.	.	.	.
.	.	.	.	.	.	.	.	.	.	.	.	.	.	.	.	.	.	32b\	.	.	.	.	.	.	.	.	.
.	.	.	.	.	.	.	.	.	.	.	.	.	.	.	.	.	.	32a\	.	.	.	.	.	.	.	.	.
.	.	.	.	.	.	.	.	.	.	.	.	.	.	.	.	.	.	32b\JJJ	.	.	.	.	.	.	.	.	.
!LO:LB:g=original	!	!	!	!	!	!	!	!	!	!	!	!	!	!	!	!	!	!LO:LB:g=original	!	!	!	!	!	!	!	!	!
=91	=91	=91	=91	=91	=91	=91	=91	=91	=91	=91	=91	=91	=91	=91	=91	=91	=91	=91	=91	=91	=91	=91	=91	=91	=91	=91	=91
!	!	!	!	!	!	!	!	!	!	!	!	!	!	!	!	!	!	!	!	!	!LO:DY:a	!	!	!	!LO:DY:a:rj	!	!LO:DY:a:rj
8c\L	.	.	8c\L	.	16e/LL	.	16ccc\LL	.	0r	.	.	0r	.	.	0r	.	.	16cc\LL	.	2g/	pp	2gg\	.	2gg\	p	2gg\	p
.	.	.	.	.	16g/	.	16gg\JJ	.	.	.	.	.	.	.	.	.	.	16g\JJ	.	.	.	.	.	.	.	.	.
8d\	6	.	8d\	.	16f/	.	16r	.	.	.	.	.	.	.	.	.	.	4g\	.	.	.	.	.	.	.	.	.
.	.	.	.	.	16g/JJ	.	16bb\	.	.	.	.	.	.	.	.	.	.	.	.	.	.	.	.	.	.	.	.
*	*	*	*	*	*rep	*	*	*	*	*	*	*	*	*	*	*	*	*	*	*	*	*	*	*	*	*	*
8c\	.	.	8c\	.	16e/LL	.	16ccc\LL	.	.	.	.	.	.	.	.	.	.	.	.	.	.	.	.	.	.	.	.
.	.	.	.	.	16g/	.	16gg\JJ	.	.	.	.	.	.	.	.	.	.	.	.	.	.	.	.	.	.	.	.
8G\J	.	.	8d\J	.	16f/	.	16r	.	.	.	.	.	.	.	.	.	.	8b\	-su	.	.	.	.	.	.	.	.
.	.	.	.	.	16g/JJ	.	16bb\	.	.	.	.	.	.	.	.	.	.	.	.	.	.	.	.	.	.	.	.
*	*	*	*	*	*Xrep	*	*	*	*	*	*	*	*	*	*	*	*	*	*	*	*	*	*	*	*	*	*
=92	=92	=92	=92	=92	=92	=92	=92	=92	=92	=92	=92	=92	=92	=92	=92	=92	=92	=92	=92	=92	=92	=92	=92	=92	=92	=92	=92
*	*	*	*	*	*rep	*	*	*	*	*	*	*	*	*	*	*	*	*	*	*	*	*	*	*	*	*	*
8c\L	3	.	8c\L	.	16e/LL	.	16ccc\LL	.	.	.	.	.	.	.	.	.	.	16cc\LL	Chri-	2g/	.	2gg\	.	2gg\	.	2gg\	.
.	.	.	.	.	16g/	.	16gg\JJ	.	.	.	.	.	.	.	.	.	.	16g\JJ	.	.	.	.	.	.	.	.	.
8d\	3	.	8d\	.	16f/	.	16r	.	.	.	.	.	.	.	.	.	.	4g\	.	.	.	.	.	.	.	.	.
.	.	.	.	.	16g/JJ	.	16bb\	.	.	.	.	.	.	.	.	.	.	.	.	.	.	.	.	.	.	.	.
*	*	*	*	*	*Xrep	*	*	*	*	*	*	*	*	*	*	*	*	*	*	*	*	*	*	*	*	*	*
*	*	*	*	*	*rep	*	*	*	*	*	*	*	*	*	*	*	*	*	*	*	*	*	*	*	*	*	*
8c\	3	.	8c\	.	16e/LL	.	16ccc\LL	.	.	.	.	.	.	.	.	.	.	.	.	.	.	.	.	.	.	.	.
.	.	.	.	.	16g/	.	16gg\JJ	.	.	.	.	.	.	.	.	.	.	.	.	.	.	.	.	.	.	.	.
8G\J	7	.	8d\J	.	16f/	.	16r	.	.	.	.	.	.	.	.	.	.	8b\	-ste	.	.	.	.	.	.	.	.
.	.	.	.	.	16g/JJ	.	16bb\	.	.	.	.	.	.	.	.	.	.	.	.	.	.	.	.	.	.	.	.
*	*	*	*	*	*Xrep	*	*	*	*	*	*	*	*	*	*	*	*	*	*	*	*	*	*	*	*	*	*
=93	=93	=93	=93	=93	=93	=93	=93	=93	=93	=93	=93	=93	=93	=93	=93	=93	=93	=93	=93	=93	=93	=93	=93	=93	=93	=93	=93
!LO:TX:a:t=P:problem:mixed beam	!	!	!LO:TX:a:t=P:problem:mixed beam	!	!	!	!	!	!	!	!	!	!	!	!	!	!	!	!	!	!	!	!	!	!	!	!
8c\L	.	.	8c\L	.	4e/	.	4ccc\	.	.	.	.	.	.	.	.	.	.	8cc\L	Je-	4g/	.	4gg\	.	4gg\	.	4gg\	.
8C/J	.	.	8C/J	.	.	.	.	.	.	.	.	.	.	.	.	.	.	8ccc\J	.	.	.	.	.	.	.	.	.
4r	.	.	4r	.	4r	.	32ccc\LLL	.	.	.	.	.	.	.	.	.	.	32ccc\LLL	.	4r	.	4r	.	4r	.	4r	.
.	.	.	.	.	.	.	32bb\	.	.	.	.	.	.	.	.	.	.	32gg\	.	.	.	.	.	.	.	.	.
.	.	.	.	.	.	.	32aa\	.	.	.	.	.	.	.	.	.	.	32ff\	.	.	.	.	.	.	.	.	.
.	.	.	.	.	.	.	32gg\JJJ	.	.	.	.	.	.	.	.	.	.	32gg\JJJ	.	.	.	.	.	.	.	.	.
.	.	.	.	.	.	.	32ff\LLL	.	.	.	.	.	.	.	.	.	.	32ff\LLL	.	.	.	.	.	.	.	.	.
.	.	.	.	.	.	.	32ee\	.	.	.	.	.	.	.	.	.	.	32ee\	.	.	.	.	.	.	.	.	.
.	.	.	.	.	.	.	32dd\	.	.	.	.	.	.	.	.	.	.	32dd\	.	.	.	.	.	.	.	.	.
.	.	.	.	.	.	.	32cc\JJJ	.	.	.	.	.	.	.	.	.	.	32cc\JJJ	.	.	.	.	.	.	.	.	.
!	!	!	!	!	!	!	!LO:LB:g=original	!	!	!	!	!	!	!	!	!	!	!	!	!	!	!LO:PB:g=original	!	!	!	!	!
=94	=94	=94	=94	=94	=94	=94	=94	=94	=94	=94	=94	=94	=94	=94	=94	=94	=94	=94	=94	=94	=94	=94	=94	=94	=94	=94	=94
!	!	!	!	!	!	!	!LO:TX:a:t=P:problem:mixed beam	!	!	!	!	!	!	!	!	!	!	!	!	!	!	!	!	!	!	!	!
8r	.	.	8r	.	8r	.	32a/LLL	.	.	.	.	.	.	.	.	.	.	32a\LLL	.	8r	.	8r	.	2r	.	2r	.
.	.	.	.	.	.	.	32gg#X\	.	.	.	.	.	.	.	.	.	.	32gg#X\	.	.	.	.	.	.	.	.	.
.	.	.	.	.	.	.	32aa\	.	.	.	.	.	.	.	.	.	.	32aa\	.	.	.	.	.	.	.	.	.
.	.	.	.	.	.	.	32gg#\JJJ	.	.	.	.	.	.	.	.	.	.	32gg#\JJJ	.	.	.	.	.	.	.	.	.
!LO:TX:a:t=P:problem:mixed beam	!	!	!LO:TX:a:t=P:problem:mixed beam	!	!	!	!	!	!	!	!	!	!	!	!	!	!	!	!	!	!	!	!	!	!	!	!
8F\L	6	.	8f\L	.	8a/L	.	32aa\LLL	.	.	.	.	.	.	.	.	.	.	32aa\LLL	.	8dd\L	.	8ff\L	.	.	.	.	.
.	.	.	.	.	.	.	32ff\	.	.	.	.	.	.	.	.	.	.	32ff\	.	.	.	.	.	.	.	.	.
.	.	.	.	.	.	.	32ee\	.	.	.	.	.	.	.	.	.	.	32ee\	-su	.	.	.	.	.	.	.	.
.	.	.	.	.	.	.	32dd\JJJ	.	.	.	.	.	.	.	.	.	.	32dd\JJJ	.	.	.	.	.	.	.	.	.
8G\	4	.	8g\	.	8e/	.	8cc\L	.	.	.	.	.	.	.	.	.	.	8cc\L	Chri-	8cc\	.	8ee\	.	.	.	.	.
8GG/J	3	.	8G/J	.	8d/J	.	8b\J	.	.	.	.	.	.	.	.	.	.	8b\J	.	8a\J	.	8dd\J	.	.	.	.	.
=95	=95	=95	=95	=95	=95	=95	=95	=95	=95	=95	=95	=95	=95	=95	=95	=95	=95	=95	=95	=95	=95	=95	=95	=95	=95	=95	=95
!	!	!	!	!	!	!LO:DY:a:t=for	!	!	!	!	!	!	!	!	!	!	!	!	!	!	!LO:DY:a:t=for	!	!LO:DY:a:t=for	!	!LO:DY:a:t=for	!	!LO:DY:a:t=for
8C/	.	.	4c/	.	16e/LL	f	4cc\	.	0r	.	.	0r	.	.	0r	.	.	8cc\	-ste	8cc\L	f	8cc\L	f	8r	f	8r	f
.	.	.	.	.	16g/	.	.	.	.	.	.	.	.	.	.	.	.	.	.	.	.	.	.	.	.	.	.
8r	.	.	.	.	16g/	.	.	.	.	.	.	.	.	.	.	.	.	8r	.	8g\	.	8gg\	.	8gg\L	.	8gg\L	.
.	.	.	.	.	16g/JJ	.	.	.	.	.	.	.	.	.	.	.	.	.	.	.	.	.	.	.	.	.	.
*	*	*	*	*	*tremolo	*	*	*	*	*	*	*	*	*	*	*	*	*	*	*	*	*	*	*	*	*	*
!	!	!LO:DY:t=for	!	!	!	!	!	!LO:DY:a	!	!	!	!	!	!	!	!	!	!	!	!	!	!	!	!	!	!	!
8r	.	f	8r	.	16g/LL	.	16g\LL	f	.	.	.	.	.	.	.	.	.	4r	.	8g\	.	8gg\	.	8gg\	.	8gg\	.
.	.	.	.	.	16g/	.	16cc\	.	.	.	.	.	.	.	.	.	.	.	.	.	.	.	.	.	.	.	.
!	!	!	!	!LO:DY:t=for	!	!	!	!	!	!	!	!	!	!	!	!	!	!	!	!	!	!	!	!	!	!	!
8e\	6	.	8e\	f	16g/	.	16ee\	.	.	.	.	.	.	.	.	.	.	.	.	8g\J	.	8gg\J	.	8gg\J	.	8gg\J	.
.	.	.	.	.	16g/JJ	.	16gg\JJ	.	.	.	.	.	.	.	.	.	.	.	.	.	.	.	.	.	.	.	.
*	*	*	*	*	*Xtremolo	*	*	*	*	*	*	*	*	*	*	*	*	*	*	*	*	*	*	*	*	*	*
!	!	!	!	!	!	!	!	!	!	!	!	!	!	!	!	!	!	!	!	!LO:LB:g=original	!	!	!	!	!	!	!
=96	=96	=96	=96	=96	=96	=96	=96	=96	=96	=96	=96	=96	=96	=96	=96	=96	=96	=96	=96	=96	=96	=96	=96	=96	=96	=96	=96
8d\L	3	.	8d\L	.	16g/LL	.	16gg\LL	.	.	.	.	.	.	.	.	.	.	0r	.	2g/	.	2dd\	.	8ff\L	.	2gg\	.
.	.	.	.	.	16g/	.	16ff\JJ	.	.	.	.	.	.	.	.	.	.	.	.	.	.	.	.	.	.	.	.
8B\	.	.	8B\J	.	16g/	.	16r	.	.	.	.	.	.	.	.	.	.	.	.	.	.	.	.	8dd\	.	.	.
.	.	.	.	.	16g/JJ	.	16dd\	.	.	.	.	.	.	.	.	.	.	.	.	.	.	.	.	.	.	.	.
8G\	.	.	8G/L	.	16g/LL	.	16cc\LL	.	.	.	.	.	.	.	.	.	.	.	.	.	.	.	.	8b\	.	.	.
.	.	.	.	.	16g/	.	16b\	.	.	.	.	.	.	.	.	.	.	.	.	.	.	.	.	.	.	.	.
8B\J	6 5	.	8B/J	.	16g/	.	16gg\	.	.	.	.	.	.	.	.	.	.	.	.	.	.	.	.	8dd\J	.	.	.
.	.	.	.	.	16g/JJ	.	16ff\JJ	.	.	.	.	.	.	.	.	.	.	.	.	.	.	.	.	.	.	.	.
=97	=97	=97	=97	=97	=97	=97	=97	=97	=97	=97	=97	=97	=97	=97	=97	=97	=97	=97	=97	=97	=97	=97	=97	=97	=97	=97	=97
*	*	*	*	*	*tremolo	*	*	*	*	*	*	*	*	*	*	*	*	*	*	*	*	*	*	*	*	*	*
!	!	!	!	!	!	!	!	!	!	!	!	!	!	!	!	!	!	!	!	!LO:TX:a:t=P:problem:mixed beam	!	!	!	!	!	!	!
8c\L	.	.	8c\L	.	16g/LL	.	32ee\LLL	.	.	.	.	.	.	.	.	.	.	.	.	8cc\L	.	8ee\L	.	8ee\L	.	32ee\LLL	.
.	.	.	.	.	.	.	32ff\	.	.	.	.	.	.	.	.	.	.	.	.	.	.	.	.	.	.	32ff\	.
.	.	.	.	.	16g/	.	32gg\	.	.	.	.	.	.	.	.	.	.	.	.	.	.	.	.	.	.	32gg\	.
.	.	.	.	.	.	.	32aa\JJ	.	.	.	.	.	.	.	.	.	.	.	.	.	.	.	.	.	.	32aa\JJ	.
8e\J	6	.	8e\J	.	16g/	.	8gg\J	.	.	.	.	.	.	.	.	.	.	.	.	8e/J	.	8cc\J	.	8gg\J	.	8gg\J	.
.	.	.	.	.	16g/	.	.	.	.	.	.	.	.	.	.	.	.	.	.	.	.	.	.	.	.	.	.
8r	.	.	8r	.	16g/	.	16g\LL	.	.	.	.	.	.	.	.	.	.	.	.	8r	.	8r	.	8r	.	4gg\	.
.	.	.	.	.	16g/	.	16cc\	.	.	.	.	.	.	.	.	.	.	.	.	.	.	.	.	.	.	.	.
8e\	.	.	8e\	.	16g/	.	16ee\	.	.	.	.	.	.	.	.	.	.	.	.	8e/	.	8cc\	.	8gg\	.	.	.
.	.	.	.	.	16g/JJ	.	16gg\JJ	.	.	.	.	.	.	.	.	.	.	.	.	.	.	.	.	.	.	.	.
!	!	!	!LO:LB:g=original	!	!LO:LB:g=original	!	!	!	!	!	!	!	!	!	!	!	!	!	!	!	!	!	!	!	!	!	!
=98	=98	=98	=98	=98	=98	=98	=98	=98	=98	=98	=98	=98	=98	=98	=98	=98	=98	=98	=98	=98	=98	=98	=98	=98	=98	=98	=98
8d\L	3	.	8d\L	.	16g/LL	.	16gg\LL	.	.	.	.	.	.	.	.	.	.	.	.	2g/	.	2dd\	.	8ff\L	.	2gg\	.
.	.	.	.	.	16g/	.	16ff\JJ	.	.	.	.	.	.	.	.	.	.	.	.	.	.	.	.	.	.	.	.
8B\	3	.	8B\J	.	16g/	.	16r	.	.	.	.	.	.	.	.	.	.	.	.	.	.	.	.	8dd\	.	.	.
.	.	.	.	.	16g/	.	16dd\	.	.	.	.	.	.	.	.	.	.	.	.	.	.	.	.	.	.	.	.
8G\	3_	.	8G/L	.	16g/	.	16cc\LL	.	.	.	.	.	.	.	.	.	.	.	.	.	.	.	.	8b\	.	.	.
.	.	.	.	.	16g/	.	16b\	.	.	.	.	.	.	.	.	.	.	.	.	.	.	.	.	.	.	.	.
8B\J	.	.	8B/J	.	16g/	.	16dd\	.	.	.	.	.	.	.	.	.	.	.	.	.	.	.	.	8dd\J	.	.	.
.	X	.	.	.	16g/JJ	.	16ff\JJ	.	.	.	.	.	.	.	.	.	.	.	.	.	.	.	.	.	.	.	.
*	*	*	*	*	*Xtremolo	*	*	*	*	*	*	*	*	*	*	*	*	*	*	*	*	*	*	*	*	*	*
=99	=99	=99	=99	=99	=99	=99	=99	=99	=99	=99	=99	=99	=99	=99	=99	=99	=99	=99	=99	=99	=99	=99	=99	=99	=99	=99	=99
!LO:TX:a:t=P:problem:mixed beam	!	!	!LO:TX:a:t=P:problem:mixed beam	!	!	!	!	!	!	!	!	!	!	!	!	!	!	!	!	!	!	!	!	!	!	!	!
8c\L	.	.	8c\L	.	8g/L	.	16ee\LL	.	1r	.	.	1r	.	.	1r	.	.	.	.	4cc\	.	8ee\L	.	8ee\L	.	8gg\L	.
.	.	.	.	.	.	.	16cc\	.	.	.	.	.	.	.	.	.	.	.	.	.	.	.	.	.	.	.	.
8F\	6	.	8f\	.	16a/L	.	16ff\	.	.	.	.	.	.	.	.	.	.	.	.	.	.	8ff\	.	8ff\	.	16ff\L	.
.	.	.	.	.	16f/JJ	.	16dd\JJ	.	.	.	.	.	.	.	.	.	.	.	.	.	.	.	.	.	.	16ddd\JJ	.
8G\	4	.	8g\	.	8e/L	.	8cc\L	.	.	.	.	.	.	.	.	.	.	.	.	8cc\L	.	8ee\	.	8ee\	.	8ccc\L	.
8GG/J	3	.	8G/J	.	8d/J	.	8b\J	.	.	.	.	.	.	.	.	.	.	.	.	8g\J	.	8dd\J	.	8dd\J	.	8bb\J	.
!	!	!	!	!	!	!	!	!	!	!	!	!	!	!	!	!	!	!	!	!	!	!	!	!LO:LB:g=original	!	!LO:LB:g=original	!
=100	=100	=100	=100	=100	=100	=100	=100	=100	=100	=100	=100	=100	=100	=100	=100	=100	=100	=100	=100	=100	=100	=100	=100	=100	=100	=100	=100
!LO:TX:a:t=P:problem:mixed beam	!	!	!LO:TX:a:t=P:problem:mixed beam	!	!LO:TX:a:t=P:problem:mixed beam	!	!	!	!	!	!	!	!	!	!	!	!	!	!	!	!	!	!	!	!	!	!
8C\L	.	.	8c\L	.	8e/L	.	16cc\LL	.	.	.	.	.	.	.	.	.	.	1r	.	8cc\	.	8ee\L	.	8ee\L	.	4ccc\	.
.	.	.	.	.	.	.	16ccc\	.	.	.	.	.	.	.	.	.	.	.	.	.	.	.	.	.	.	.	.
.	.	.	.	.	.	.	8qqbb/	.	.	.	.	.	.	.	.	.	.	.	.	.	.	.	.	.	.	.	.
8F\	6	.	8f\	.	8cc\	.	16aa\	.	.	.	.	.	.	.	.	.	.	.	.	8r	.	8ff\	.	8ff\	.	.	.
.	.	.	.	.	.	.	32gg\L	.	.	.	.	.	.	.	.	.	.	.	.	.	.	.	.	.	.	.	.
.	.	.	.	.	.	.	32ff\JJJ	.	.	.	.	.	.	.	.	.	.	.	.	.	.	.	.	.	.	.	.
8G\	4	.	8g\	.	8cc\	.	8ee\L	.	.	.	.	.	.	.	.	.	.	.	.	8cc\L	.	8ee\	.	8ee\	.	8ccc\L	.
8GG/J	3	.	8G/J	.	8b\J	.	8dd\J	.	.	.	.	.	.	.	.	.	.	.	.	8g\J	.	8dd\J	.	8dd\J	.	8bb\J	.
!LO:LB:g=original	!	!	!	!	!	!	!	!	!	!	!	!	!	!	!	!	!	!	!	!	!	!	!	!	!	!	!
=101	=101	=101	=101	=101	=101	=101	=101	=101	=101	=101	=101	=101	=101	=101	=101	=101	=101	=101	=101	=101	=101	=101	=101	=101	=101	=101	=101
!	!	!	!	!	!LO:TX:a:t=P:problem:mixed beam	!	!	!	!	!	!	!	!	!	!	!	!	!	!	!	!	!	!	!	!	!	!
8C/L	.	.	8c\L	.	8cc\L	.	8cc\L	.	2r	.	.	2r	.	.	2r	.	.	.	.	8cc\L	.	8ee\L	.	8ee\L	.	8ccc\L	.
8C/	.	.	8c\	.	8e/	.	8cc\	.	.	.	.	.	.	.	.	.	.	.	.	8cc\	.	8ee\	.	8ee\	.	8ccc\	.
8C/J	.	.	8c\J	.	8e/J	.	8cc\J	.	.	.	.	.	.	.	.	.	.	.	.	8cc\J	.	8ee\J	.	8ee\J	.	8ccc\J	.
8r	.	.	8r	.	8r	.	8r	.	.	.	.	.	.	.	.	.	.	.	.	8r	.	8r	.	8r	.	8r	.
==	==	==	==	==	==	==	==	==	==	==	==	==	==	==	==	==	==	==	==	==	==	==	==	==	==	==	==
*-	*-	*-	*-	*-	*-	*-	*-	*-	*-	*-	*-	*-	*-	*-	*-	*-	*-	*-	*-	*-	*-	*-	*-	*-	*-	*-	*-
!!!system-decoration: [(g1)][(g2)][(g3)][(g4)]s12
!!!RDF**kern: | = vertical stroke
!!!AIN: 1 alto 1 bass 2 cor 2 flt 1 organ 1 soprn 1 tenor 1 viola 2 violn
!!!ENC: Berenika Jozajtis
!!!END: 2021-12-05
!!!ENC: Marta Lawrence
!!!END: 2021-12-09
